!!!!SEGMENT: pl-wn--mus-iii-601--004-001_janiewicz-feliks--ive-trio-allegro-moderato.krn
!!!cenid: 17xx:2396
!!!COM: Janiewicz, Feliks
!!!COM-rismID: pe30011012
!!!CDT: 1762-1848
!!!CNT:
!!!OPR: Ive Trio
!!!OTL: Allegro moderato
!!!OMV: 001
!!!PDT:
!!!AGN:
!!!SMS-siglum: PL-Wn
!!!SMS-shelfmark: Mus.III.601
!!!SMS-shelfwork: 004-001 M
!!!SMS-variant:
!!!SMS-altvar:
!!!NIFC-rismSourceID: 990069598
!!!NIFC-islandoraID:
!!!URL-pdf-islandora:
!!!URL-scan: https://polona.pl/item/six-trios-pour-deux-violons-basse,MTAxMDA3MzY2/0/#item @EN{Scan on Polona} @PL{Skany w portalu Polona}
!!!ONB-nifc: UWAGA: źródło zawiera 6 Trio na 2 skrzypiec i wiolonczelę. Violino Primo (od skanu 3), Violino Secondo (od skanu 37), Basso (od skanu 61). Basso to partia wiolonczeli. Części Ie Trio: 1. Allegro moderato, 2. Adagio, 3. Polonese/Allegretto
!!!AIN: 1 cello 2 violn
!!!key: B-
!!!OMD:
!!!OMD-mod: Allegro moderato
**kern	**dynam	**kern	**dynam	**kern	**dynam
*part3	*part3	*part2	*part2	*part1	*part1
*staff3	*	*staff2	*	*staff1	*
*I"BASSO	*	*I"VIOLINO SECONDO	*	*I"VIOLINO PRIMO	*
*mI"Violoncello	*	*mI"Violino II	*	*mI"Violino I	*
*I'vlc	*	*I'vl 2	*	*I'vl 1	*
*ICstr	*	*ICstr	*	*ICstr	*
*Icello	*	*Ivioln	*	*Ivioln	*
*clefF4	*	*clefG2	*	*clefG2	*
*k[b-e-]	*	*k[b-e-]	*	*k[b-e-]	*
*B-:	*	*B-:	*	*B-:	*
*M2/4	*	*M2/4	*	*M2/4	*
!LO:TX:a:B:t=Allegro Mod.|t|o:mod=	!	!	!	!LO:TX:B:t=All|o. Moderato:mod=	!
8ryy	.	8ryy	.	8ryy	.
!	!	!LO:TX:a:B:t=Allegro Mod.|t|o:mod=	!	!LO:TUP:a:problem:klamra łukowa	!
!	!	!	!	!LO:SIC:s=(24ff\LL:v	!
8r	.	8r	.	24ff\LL	p
.	.	.	.	24gg\	.
.	.	.	.	24ff\JJ	.
=1	=1	=1	=1	=1	=1
!	!	!	!	!LO:SIC:s=8bb-\):v	!
8r	.	8r	.	8bb-\	.
!	!	!LO:TUP:b:problem:klamra łukowa	!	!	!
8BB-'/L	p	24f/LL	p	8r	.
.	.	24g/	.	.	.
.	.	24f/JJ	.	.	.
8B-'\J	.	8d/	.	8r	.
8r	.	8r	.	(24ff\LL	.
.	.	.	.	24gg\	.
.	.	.	.	24ff\JJ	.
=2	=2	=2	=2	=2	=2
8r	.	8r	.	8bb-\)	.
!	!	!LO:TUP:b:problem:klamra łukowa	!	!	!
8BB-'/L	.	24f/LL	.	8r	.
.	.	24g/	.	.	.
.	.	24f/JJ	.	.	.
8B-'\J	.	8d/	.	8r	.
8r	.	8r	.	(24ff\LL	.
.	.	.	.	24gg\	.
.	.	.	.	24ff\JJ	.
=3	=3	=3	=3	=3	=3
!	!	!	!LO:MO:mod=!null:null	!	!
!	!	!LO:TUP:b:problem:klamra łukowa	!LO:HP:b:t=cres	!	!
8r	.	24f/LL	<	8bb-\L)	.
.	.	24g/	.	.	.
.	.	24f/J	.	.	.
!	!	!	!	!LO:MO:mod=!null:null	!
*	*	*	*	*Xtuplet	*
!	!	!	!	!	!LO:MO:mod=!null:null
!	!	!	!	!	!LO:HP:b:t=cres
8BB-'/	.	8d/J	.	(24ff\L	<
.	.	.	.	24gg\	.
.	.	.	.	24ff\JJ	.
!	!	!LO:MO:mod=!null:null	!	!	!
*	*	*Xtuplet	*	*	*
!	!	!LO:TUP:b:problem:klamra łukowa	!	!	!
8r	.	24f/LL	.	8bb-\L)	.
.	.	24g/	.	.	.
.	.	24f/J	.	.	.
!	!LO:MO:mod=!null:null	!	!	!	!
!	!LO:HP:b:t=cres	!	!	!LO:TUP:a:problem:klamra łukowa 	!
8B-'\	<	8d/J	.	(24ff\L	.
.	.	.	.	24gg\	.
.	.	.	.	24ff\JJ	.
=4	=4	=4	=4	=4	=4
!	!	!	!	!	!LO:DY:b:t=F
8BB-'/	.	8f/	.	24bb-\LL)	f
.	.	.	.	24aa\	.
.	.	.	.	24gg\	.
8r	.	8r	.	24ff\	.
.	.	.	.	24ee-\	.
.	.	.	.	24dd\JJ	.
4r	.	4r	.	24gg\LL	.
.	.	.	.	24ff\	.
.	.	.	.	24ee-\	.
.	.	.	.	24dd\	.
.	.	.	.	24cc\	.
.	.	.	.	24b-\JJ	.
=5	=5	=5	=5	=5	=5
!LO:MO:mod=!null:null	!	!LO:MO:mod=!null:null	!	!	!
!LO:TX:a:t=I	!	!LO:TX:a:t=I	!	!	!
2r	.	2r	.	24ee-\LL	.
.	.	.	.	24dd\	.
.	.	.	.	24cc\	.
.	.	.	.	24b-\	.
.	.	.	.	24a\	.
.	.	.	.	24g\JJ	.
.	.	.	.	24f/LL	.
.	.	.	.	24g/	.
.	.	.	.	24f/	.
.	.	.	.	24e-/	.
.	.	.	.	24d/	.
.	.	.	.	24c/JJ	.
!	!	!	!	!LO:LB:g=original	!
=6	=6	=6	=6	=6	=6
4BB-;/	<	4f 4dt;/	<	4B-T;/	.
.	[ > ]]	.	[ > ]	.	.
4r	.	8r	.	8r	.
*	*	*	*	*tuplet	*
!	!	!	!	!LO:TUP:a:problem:klamra łukowa	!
!	!	!	!	!LO:SIC:s=(24aa\LL:v	!
.	.	8r	.	24aa\LL	p
.	.	.	.	24bb-\	.
.	.	.	.	24aa\JJ	.
=7	=7	=7	=7	=7	=7
!	!	!	!	!LO:SIC:s=8ccc\):v	!
8r	.	8r	]	8ccc\	.
*	*	*tuplet	*	*	*
!	!	!LO:TUP:b:problem:klamra łukowa	!	!	!
8FF'/L	p	24f/LL	p	8r	.
.	.	24g/	.	.	.
.	.	24f/JJ	.	.	.
8F'\J	.	8c/	.	8r	.
!	!	!	!	!LO:MO:mod=!null:null	!
*	*	*	*	*Xtuplet	*
!	!	!	!	!LO:TUP:a:problem:klamra łukowa	!
!	!	!	!	!LO:SIC:s=(24aa\LL:v	!
8r	.	8r	.	24aa\LL	.
.	.	.	.	24bb-\	.
.	.	.	.	24aa\JJ	.
!	!	!LO:LB:g=original	!	!	!
=8	=8	=8	=8	=8	=8
!	!	!	!	!LO:SIC:s=8ccc\):v	!
8r	.	8r	.	8ccc\	.
!	!	!LO:TUP:b:problem:klamra łukowa	!	!	!
8FF'/L	.	24f/LL	.	8r	.
.	.	24g/	.	.	.
.	.	24f/JJ	.	.	.
8F'\J	.	8c/	.	8r	.
8r	.	8r	.	(24aa\LL	.
.	.	.	.	24bb-\	.
.	.	.	.	24aa\JJ	.
=9	=9	=9	=9	=9	=9
!	!	!LO:MO:mod=!null:null	!	!	!
*	*	*Xtuplet	*	*	*
!	!	!	!LO:MO:mod=!null:null	!	!
!	!	!LO:TUP:b:problem:klamra łukowa	!LO:HP:b:t=cres	!	!
8r	.	24f/LL	<	8ccc\L)	.
.	.	24g/	.	.	.
.	.	24f/J	.	.	.
!	!	!	!	!	!LO:MO:mod=!null:null
!	!	!	!	!	!LO:HP:b:t=cres
8FF'/	.	8c/J	.	(24aa\L	<
.	.	.	.	24bb-\	.
.	.	.	.	24aa\JJ	.
!	!	!LO:TUP:b:problem:klamra łukowa	!	!	!
8r	.	24f/LL	.	8ccc\L)	.
.	.	24g/	.	.	.
.	.	24f/J	.	.	.
!	!LO:MO:mod=!null:null	!	!	!	!
!	!LO:HP:b:t=cres	!	!	!	!
8F'\	<	8c/J	.	(24aa\L	.
.	.	.	.	24bb-\	.
.	.	.	.	24aa\JJ	.
=10	=10	=10	=10	=10	=10
!	!	!	!	!	!LO:DY:b:t=F
!LO:SIC:s=8FF'/:v	!	!	!	!	!
8FF/	.	8e-/	.	24ccc\LL)	f
.	.	.	.	24aa\	.
.	.	.	.	24ccc\	.
8r	.	8r	.	24eee-\	.
.	.	.	.	24ddd\	.
.	.	.	.	24ccc\JJ	.
4r	.	4r	.	24bb-\LL	.
.	.	.	.	24aa\	.
.	.	.	.	24ccc\	.
.	.	.	.	24bb-\	.
.	.	.	.	24aa\	.
.	.	.	.	24gg\JJ	.
!LO:LB:g=original	!	!	!	!	!
=11	=11	=11	=11	=11	=11
!LO:MO:mod=!null:null	!	!LO:MO:mod=!null:null	!	!	!
!LO:TX:a:t=I	!	!LO:TX:a:t=I	!	!	!
2r	.	2r	.	24ff\LL	.
.	.	.	.	24een\	.
.	.	.	.	24gg\	.
.	.	.	.	24ff\	.
.	.	.	.	24ee\	.
.	.	.	.	24gg\JJ	.
.	.	.	.	24ff\LL	.
.	.	.	.	24ee\	.
.	.	.	.	24gg\	.
.	.	.	.	24ff\	.
.	.	.	.	24ee\	.
.	.	.	.	24gg\JJ	.
=12	=12	=12	=12	=12	=12
.	.	8qqc/	.	.	.
4F;\	<	4a 4e-;/	<	4ffT;\	.
.	[ > ]	.	[ > ]	.	.
4r	.	4r	.	4r	.
!	!	!	!	!LO:LB:g=original	!
=13	=13	=13	=13	=13	=13
*	*	*	*	*^	*
*	*	*	*	*	*cue	*
!	!	!	!	!LO:MO:mod=!null:null	!	!
!	!	!	!	!LO:TX:a:t=I	!	!
8BB-/	p	(16d/LL	p	2r	16B-\LL	.
.	.	16f/)	.	.	16f\	.
8r	.	16f'/	.	.	16d\	.
.	.	16f'/JJ	.	.	16f\JJ	.
8B-\	.	(16d/LL	.	.	16B-\LL	.
.	.	16f/)	.	.	16f\	.
8r	.	16f'/	.	.	16d\	.
.	.	16f'/JJ	.	.	16f\JJ	.
*	*	*	*	*	*Xcue	*
*	*	*	*	*v	*v	*
=14	=14	=14	=14	=14	=14
!	!LO:MO:mod=!null:null	!	!LO:MO:mod=!null:null	!	!
!	!LO:HP:b:t=cres	!	!LO:HP:b:t=cres	!	!
8BB-/	<	(16d/LL	<	4r	.
.	.	16f/)	.	.	.
8r	.	16f'/	.	.	.
.	.	16f'/JJ	.	.	.
8B-\	.	(16d/LL	.	8r	.
.	.	16f/)	.	.	.
!	!	!	!	!	!LO:DY:b:t=F
8r	.	16f'/	.	[8bb-\	f
.	.	16f'/JJ	.	.	.
=15	=15	=15	=15	=15	=15
!	!LO:MO:mod=!null:null	!	!	!	!
!	!LO:DY:t=rinf	!	!LO:DY:b:t=F	!	!
!	!LO:MO:mod=f	!	!	!	!
8B-\L	rfz	(16e-/LL	f	16bb-\KL]	.
.	.	16g-X/)	.	8aa\	.
8B-\	.	16g-'/	.	.	.
.	.	16g-'/JJ	.	8aa\	.
8B-\	.	(16e-/LL	.	.	.
.	.	16g-/)	.	8aa\	.
8B-\J	.	16g-'/	.	.	.
.	.	16g-'/JJ	.	16aa\Jk	.
=16	=16	=16	=16	=16	=16
*tremolo	*	*	*	*	*
!	!	!	!	!LO:TUP:a:problem:klamra łukowa	!
8B-\L	.	(16e-/LL	.	24aa\LL	.
.	.	.	.	24ccc\	.
.	.	16g-X/)	.	.	.
.	.	.	.	24aa\	.
8B-\	.	16g-'/	.	(24eee-X\	.
.	.	.	.	24ccc\)	.
.	.	16g-'/JJ	.	.	.
.	.	.	.	24aa`\JJ	.
8B-\	.	(16e-/LL	.	24eee-\LL	.
.	.	.	.	24ccc\	.
.	.	16g-/)	.	.	.
.	.	.	.	24aa\	.
8B-\J	.	16g-'/	.	24eee-\	.
.	.	.	.	24ccc\	.
.	.	16g-'/JJ	.	.	.
.	.	.	.	24aa\JJ	.
*Xtremolo	*	*	*	*	*
!	!	!LO:LB:g=original	!	!	!
=17	=17	=17	=17	=17	=17
8BB-/	p	(16d/LL	p	4bb-\	.
.	.	16f/)	.	.	.
8r	.	16f'/	.	.	.
.	.	16f'/JJ	.	.	.
8B-\	.	(16d/LL	.	4r	.
.	.	16f/)	.	.	.
8r	.	16f'/	.	.	.
.	.	16f'/JJ	.	.	.
=18	=18	=18	=18	=18	=18
!	!LO:MO:mod=!LO&colon;HP&colon;ed=brack	!	!LO:MO:mod=!LO&colon;HP&colon;ed=brack	!	!
!	!null	!	!null	!	!
!	!LO:MO:null:mod=<	!	!LO:MO:null:mod=<	!	!
8BB-/	.	(16d/LL	.	8r	.
.	.	16f/)	.	.	.
8r	.	16f'/	.	4r	.
.	.	16f'/JJ	.	.	.
8B-\	.	(16d/LL	.	.	.
.	.	16f/)	.	.	.
!	!	!	!	!	!LO:DY:t= :mod=%s
!	!	!	!	!	!LO:MO:mod=!LO&colon;DY&colon;ed=brack
!	!	!	!	!	!null
8r	.	16f'/	.	[8bb-\	f
.	.	16f'/JJ	.	.	.
=19	=19	=19	=19	=19	=19
!	!LO:MO:mod=!null:null	!	!	!	!
!	!LO:DY:t=rinf	!	!LO:DY:b:t=F	!	!
!	!LO:MO:mod=f	!	!	!	!
8BB-/L	rfz	(16e-/LL	f	16bb-\KL]	.
.	.	16g-X/)	.	8aa\	.
8B-\	.	16g-'/	.	.	.
.	.	16g-'/JJ	.	8aa\	.
8B-\	.	(16e-/LL	.	.	.
.	.	16g-/)	.	8aa\	.
8B-\J	.	16g-'/	.	.	.
.	.	16g-'/JJ	.	[16aa\Jk	.
=20	=20	=20	=20	=20	=20
*tremolo	*	*	*	*	*
8B-\L	.	(16e-/LL	.	24aa\LL]	.
.	.	.	.	24ccc\	.
.	.	16g-X/)	.	.	.
.	.	.	.	24aa\	.
8B-\	.	16g-'/	.	24eee-\	.
.	.	.	.	24ccc\	.
.	.	16g-'/JJ	.	.	.
.	.	.	.	24aa\JJ	.
8B-\	.	(16e-/LL	.	24eee-\LL	.
.	.	.	.	24ccc\	.
.	.	16g-/)	.	.	.
.	.	.	.	24aa\	.
8B-\J	.	16g-'/	.	24eee-\	.
.	.	.	.	24ccc\	.
.	.	16g-'/JJ	.	.	.
.	.	.	.	24aa\JJ	.
*Xtremolo	*	*	*	*	*
!	!	!	!	!LO:LB:g=original	!
=21	=21	=21	=21	=21	=21
8B-'\	.	8d'/L	.	24bb-\LL	.
.	.	.	.	24aa\	.
.	.	.	.	24bb-\	.
8r	.	8f'/	.	24ddd\	.
.	.	.	.	24ccc#X\	.
.	.	.	.	24ddd\JJ	.
8A'\L	.	8c'/	.	24ff\LL	.
.	.	.	.	24gg\	.
.	.	.	.	24ff\	.
8F'\J	.	8e-'/J	.	24aa\	.
.	.	.	.	24bb-\	.
.	.	.	.	24aa\JJ	.
=22	=22	=22	=22	=22	=22
8BB-'/	.	8d'/L	.	24bb-\LL	.
.	.	.	.	24aa\	.
.	.	.	.	24bb-\	.
8r	.	8f'/	.	24ddd\	.
.	.	.	.	24ccc#X\	.
.	.	.	.	24ddd\JJ	.
8AA'/L	.	8c'/	.	24ff\LL	.
.	.	.	.	24gg\	.
.	.	.	.	24ff\	.
8FF'/J	.	8e-'/J	.	24aa\	.
.	.	.	.	24bb-\	.
.	.	.	.	24aa\JJ	.
=23	=23	=23	=23	=23	=23
!	!LO:DY:b:t=F	!	!LO:DY:b:t=F	!	!
!LO:SIC:s=8BB-'/L:v	!LO:MO:mod=!null:null	!	!LO:MO:mod=!null:null	!	!
8BB-/L	f	8d'/L	f	24bb-'\LL	.
.	.	.	.	(24aa\	.
.	.	.	.	24bb-\)	.
!LO:SIC:s=8F'/:v	!	!	!	!	!
8F/	.	8f'/	.	24ff`\	.
.	.	.	.	(24een\	.
.	.	.	.	24ff\JJ)	.
!LO:SIC:s=8D'/:v	!	!	!	!	!
8D/	.	8d'/	.	24dd\LL	.
.	.	.	.	24cc#X\	.
.	.	.	.	24dd\	.
!LO:SIC:s=8BB-'/J:v	!	!	!	!	!
8BB-/J	.	8B-'/J	.	24b-\	.
.	.	.	.	24a\	.
.	.	.	.	24b-\JJ	.
=24	=24	=24	=24	=24	=24
!LO:SIC:s=8FF'/:v	!	!	!	!	!
8FF/	.	8A'/	.	(16f`\LL	.
.	.	.	.	32g\L	.
.	.	.	.	32a\	.
8r	.	8r	.	32b-\	.
.	.	.	.	32ccn\	.
.	.	.	.	32dd\	.
.	.	.	.	32een\JJJ)	.
!LO:SIC:s=8F'\:v	!	!	!	!	!
8F\	.	8a 8c/	.	(16ff`\LL	.
.	.	.	.	32gg\L	.
.	.	.	.	32aa\	.
8r	.	8r	.	32bb-\	.
.	.	.	.	32ccc\	.
.	.	.	.	32ddd\	.
!	!	!	!	!LO:SIC:s=(32eee\JJJ):v	!
.	.	.	.	(32eee-\JJJ)	.
!LO:LB:g=original	!	!LO:LB:g=original	!	!LO:LB:g=original	!
=25	=25	=25	=25	=25	=25
!LO:SIC:s=8F'\:v	!	!	!	!	!
8F\	.	8a 8c'/	.	8fff\)	.
8r	.	8r	.	8r	.
4r	.	4r	.	8r	.
.	.	.	.	(24ccc\LL	p
.	.	.	.	24bbn\	.
.	.	.	.	24ccc\JJ	.
=26	=26	=26	=26	=26	=26
!LO:MO:mod=!null:null	!	!LO:MO:mod=!null:null	!	!	!
!LO:TX:a:t=I	!	!LO:TX:a:t=I	!	!	!
2r	.	2r	.	8aa\L)	.
.	.	.	.	(24aa\L	.
.	.	.	.	24gg#X\	.
.	.	.	.	24aa\JJ	.
.	.	.	.	8ff\L)	.
.	.	.	.	(24ff\L	.
.	.	.	.	24een\	.
.	.	.	.	24ff\JJ	.
=27	=27	=27	=27	=27	=27
8r	.	8r	.	4.cc\)	<
*	*	*tuplet	*	*	*
!	!	!LO:TUP:b:problem:klamra łukowa	!	!	!
8En'\L	p	24g/LL	p	.	.
.	.	24a/	.	.	.
.	.	24g/JJ	.	.	.
8F'\	.	8a'/L	.	.	.
.	.	.	.	8qqeen/	.
8G'\J	.	8b-'/J	.	16dd\LL	.
.	.	.	.	16cc\JJ	[[
=28	=28	=28	=28	=28	=28
8F\	.	8a\L	.	8cc\	.
!	!	!LO:TUP:a:problem:klamra łukowa	!	!	!
8r	.	24cc\L	.	8r	.
.	.	24dd\	.	.	.
.	.	24cc\JJ	.	.	.
4r	.	8ff\	.	8r	.
.	.	8r	.	(24ccc\LL	p
.	.	.	.	24bbn\	.
.	.	.	.	24ccc\JJ	.
=29	=29	=29	=29	=29	=29
!LO:MO:mod=!null:null	!	!LO:MO:mod=!null:null	!	!	!
!LO:TX:a:t=I	!	!LO:TX:a:t=I	!	!	!
2r	.	2r	.	8aa\L)	.
.	.	.	.	(24aa\L	.
.	.	.	.	24gg#X\	.
.	.	.	.	24aa\JJ	.
!	!	!	!	!LO:SIC:s=8ff\L):v	!
.	.	.	.	8ff\L	.
!	!	!	!	!LO:SIC:s=(24ff\L:v	!
.	.	.	.	(24ff\L)	.
.	.	.	.	24een\	.
.	.	.	.	24ff\JJ	.
=30	=30	=30	=30	=30	=30
8r	.	8r	.	4.dd\)	<
!	!	!LO:TX:t=P:problem:przy trioli zamiast cyfry 3 jest 6	!	!	!
8F#X'\L	.	24a/LL	.	.	.
.	.	24b-/	.	.	.
.	.	24a/JJ	.	.	.
8G'\	.	8b-'\L	.	.	.
.	.	.	.	8qqff/	.
8A'\J	.	8cc'\J	.	16ee-X\LL	.
.	.	.	.	16dd\JJ	[[
=31	=31	=31	=31	=31	=31
8G\	.	8b-\L	.	8ddX\	.
!	!	!LO:TUP:a:problem:klamra łukowa	!	!	!
8r	.	24dd\L	.	8r	.
.	.	24ee-\	.	.	.
.	.	24dd\JJ	.	.	.
4r	.	8gg\	.	8r	.
.	.	8r	.	(24ddd\LL	p
.	.	.	.	24ccc#X\	.
.	.	.	.	24ddd\JJ	.
!	!	!	!	!LO:LB:g=original	!
=32	=32	=32	=32	=32	=32
!LO:MO:mod=!null:null	!	!LO:MO:mod=!null:null	!	!	!
!LO:TX:a:t=I	!	!LO:TX:a:t=I	!	!	!
2r	.	2r	.	8bb-\L)	.
.	.	.	.	(24bb-\L	.
.	.	.	.	24aa\	.
.	.	.	.	24bb-\JJ	.
.	.	.	.	8gg\L)	.
.	.	.	.	(24gg\L	.
.	.	.	.	24ff#X\	.
.	.	.	.	24gg\JJ	.
=33	=33	=33	=33	=33	=33
!	!LO:DY:b:t=F	!	!LO:DY:b:t=F	!	!LO:DY:b:t=F
8C/	f	8en 8G/	f	24een\LL)	f
.	.	.	.	24gg\	.
.	.	.	.	24ee\	.
8r	.	8r	.	24bb-\	.
.	.	.	.	24gg\	.
.	.	.	.	24ee\JJ	.
!	!LO:MO:mod=!null:null	!	!LO:MO:mod=!null:null	!	!
!	!LO:DY:t=rinf	!	!LO:DY:t=rinf	!	!
(<4D-X\	rfz	4b- [4g/	rfz	24dd-X\LL	.
.	.	.	.	24ee\	.
.	.	.	.	24gg\	.
.	.	.	.	24bb-\	.
.	.	.	.	24gg\	.
.	.	.	.	24ee\JJ	.
=34	=34	=34	=34	=34	=34
8C/)	.	8b- 8g/]	.	24cc\LL	.
.	.	.	.	24bb-\	.
.	.	.	.	24aa\	.
8r	.	8r	.	24gg\	.
.	.	.	.	24ff\	.
.	.	.	.	24een\JJ	.
8r	.	8r	.	24ddn\LL	.
.	.	.	.	24cc\	.
.	.	.	.	24bn\	.
8En\	.	8g 8c/	.	24cc\	.
.	.	.	.	24dd\	.
.	.	.	.	24b-X\JJ	.
=35	=35	=35	=35	=35	=35
8F\	.	8c/	.	24a/LL	.
.	.	.	.	24f/	.
.	.	.	.	24g/	.
8r	.	8r	.	24a/	.
.	.	.	.	24b-/	.
.	.	.	.	24cc/JJ	.
4r	.	4r	.	24dd\LL	.
.	.	.	.	24een\	.
.	.	.	.	24ff\	.
.	.	.	.	24gg\	.
.	.	.	.	24aa\	.
.	.	.	.	24bb-\JJ	.
!	!	!LO:LB:g=original	!	!	!
=36	=36	=36	=36	=36	=36
8FF/	.	8a 8f/	.	24ccc\LL	.
.	.	.	.	24aa\	.
.	.	.	.	24bb-\	.
8r	.	8r	.	24ccc\	.
.	.	.	.	24ddd\	.
.	.	.	.	24eeen\JJ	.
4r	.	4r	.	24fff\LL	.
.	.	.	.	24ccc\	.
.	.	.	.	24bb-\	.
.	.	.	.	24aa\	.
.	.	.	.	24gg\	.
.	.	.	.	24ff\JJ	.
!	!	!	!	!LO:LB:g=original	!
=37	=37	=37	=37	=37	=37
(4C/	p	(4g/	p	24een\LL	p
.	.	.	.	24gg\	.
.	.	.	.	24ee\	.
.	.	.	.	24bb-\	.
.	.	.	.	24gg\	.
.	.	.	.	24ee\JJ	.
!	!	!	!LO:MO:mod=!LO&colon;HP&colon;ed=brack	!	!
!	!	!	!null	!	!
!	!	!	!LO:MO:null:mod=>	!	!
4D-X\	>	[4b-\)	.	24dd-X\LL	.
.	.	.	.	24ee\	.
.	.	.	.	24ff\	.
.	.	.	.	24bb-\	.
.	.	.	.	24gg\	.
.	.	.	.	24ee\JJ	.
=38	=38	=38	=38	=38	=38
!	!	!	!LO:MO:null:mod=]	!	!
8C/)	]	8b-\]	.	24cc\LL	.
.	.	.	.	24bb-\	.
.	.	.	.	24aa\	.
8r	.	8r	.	24gg\	.
.	.	.	.	24ff\	.
.	.	.	.	24een\JJ	.
8r	.	8r	.	24ddn\LL	.
.	.	.	.	24cc\	.
.	.	.	.	24bn\	.
8En'\	.	8g 8c'/	.	24cc\	.
.	.	.	.	24dd\	.
.	.	.	.	24b-X\JJ	.
=39	=39	=39	=39	=39	=39
8F'\	.	8c'/	.	24a/LL	.
.	.	.	.	24f/	.
.	.	.	.	24g/	.
8r	.	8r	.	24a/	.
.	.	.	.	24b-/	.
.	.	.	.	24cc/JJ	.
4r	.	4r	.	24dd\LL	.
.	.	.	.	24een\	.
.	.	.	.	24ff\	.
.	.	.	.	24gg\	.
.	.	.	.	24aa\	.
.	.	.	.	24bb-\JJ	.
=40	=40	=40	=40	=40	=40
8FF/	.	8a 8f/	.	24ccc\LL	.
.	.	.	.	24aa\	.
.	.	.	.	24bb-\	.
8r	.	8r	.	24ccc\	.
.	.	.	.	24ddd\	.
.	.	.	.	24eeen\JJ	.
4r	.	4r	.	24fff\LL	.
.	.	.	.	24ccc\	.
.	.	.	.	24bb-\	.
.	.	.	.	24aa\	.
.	.	.	.	24gg\	.
.	.	.	.	24ff\JJ	.
!LO:LB:g=original	!	!	!	!LO:LB:g=original	!
=41	=41	=41	=41	=41	=41
!	!LO:DY:t= :mod=%s	!	!LO:MO:mod=!null:null	!	!
!	!LO:MO:mod=!LO&colon;DY&colon;ed=brack	!	!LO:DY:t=rinf	!	!LO:DY:b:t=F
!	!null	!	!	!	!
8C/L	rfz	16b-LL 16g/	rfz	24cc\LL	f
.	.	.	.	24een\	.
.	.	16b- 16g/	.	.	.
.	.	.	.	24gg\	.
8C/	.	16b- 16g/	.	24ccc\	.
!	!	!	!	!LO:SIC:s=24eee\:v	!
.	.	.	.	24eee-\	.
.	.	16b-JJ 16g/	.	.	.
.	.	.	.	24ccc\JJ	.
8C/	.	16aLL 16f/	.	24fff\LL	.
.	.	.	.	24ccc\	.
.	.	16a 16f/	.	.	.
.	.	.	.	24bb-\	.
8C/J	.	16a 16f/	.	24aa\	.
.	.	.	.	24gg\	.
.	.	16aJJ 16f/	.	.	.
.	.	.	.	24ff\JJ	.
=42	=42	=42	=42	=42	=42
*tremolo	*	*	*	*	*
8C/L	.	16b-LL 16g/	.	24cc\LL	.
.	.	.	.	24een\	.
.	.	16b- 16g/	.	.	.
.	.	.	.	24gg\	.
8C/	.	16b- 16g/	.	24ccc\	.
!	!	!	!	!LO:SIC:s=24eee\:v	!
.	.	.	.	24eee-\	.
.	.	16b-JJ 16g/	.	.	.
.	.	.	.	24ccc\JJ	.
8C/	.	16aLL 16f/	.	24fff\LL	.
.	.	.	.	24ccc\	.
.	.	16a 16f/	.	.	.
.	.	.	.	24bb-\	.
8C/J	.	16a 16f/	.	24aa\	.
.	.	.	.	24gg\	.
.	.	16aJJ 16f/	.	.	.
.	.	.	.	24ff\JJ	.
*Xtremolo	*	*	*	*	*
=43	=43	=43	=43	=43	=43
8C/	.	8g/	.	24cc\LL	.
.	.	.	.	24een\	.
.	.	.	.	24gg\	.
8r	.	8r	.	(24ccc\	.
.	.	.	.	24ggg\)	.
.	.	.	.	24ccc'\JJ	.
4r	.	4r	.	(24ccc\LL	.
.	.	.	.	24ggg\)	.
!	!	!	!	!LO:SIC:s=24eee'\:v	!
.	.	.	.	24eee-'\	.
.	.	.	.	(>24ccc\	.
.	.	.	.	24ggg\)	.
!	!	!	!	!LO:SIC:s=24eee'\JJ:v	!
.	.	.	.	24eee-'\JJ	.
!	!	!LO:LB:g=original	!	!	!
=44	=44	=44	=44	=44	=44
!	!	!	!LO:MO:mod=!LO&colon;HP&colon;ed=brack	!	!
!	!	!	!null	!	!
!	!	!	!LO:MO:null:mod=<	!	!
4C 4CC;/	<	4en 4G;/	.	4cccT;<\	.
!	!	!	!LO:MO:null:mod=[	!	!
.	[	.	.	.	.
4r	.	4r	.	4r	.
=45	=45	=45	=45	=45	=45
!	!	!	!	!LO:MO:mod=!LO&colon;TX&colon;a&colon;i&colon;t=dolce	!
!	!	!	!	!LO:TX:b:i:t=dol	!
.	.	.	.	8qqcc/	.
8FF'/	p	8r	.	(4.ccc\	.
8r	.	(24f/LL	p	.	.
.	.	24g/	.	.	.
.	.	24f/JJ	.	.	.
8r	.	8a/)	.	.	.
8F'\	.	8r	.	8aa'\)	.
=46	=46	=46	=46	=46	=46
8FF/	.	8r	.	(4.ff\	.
!	!	!LO:MO:mod=!null:null	!	!	!
*	*	*Xtuplet	*	*	*
!	!	!LO:TUP:a:problem:klamra łukowa	!	!	!
!	!	!LO:SIC:s=(24a\LL:v	!	!	!
8r	.	24a\LL	.	.	.
.	.	24b-\	.	.	.
.	.	24a\JJ	.	.	.
!	!	!LO:SIC:s=8cc\):v	!	!	!
8r	.	8cc\	.	.	.
8F\	.	8r	.	8aa'\)	.
=47	=47	=47	=47	=47	=47
8En\	.	8r	.	(4.cc\	.
*	*	*tuplet	*	*	*
8r	.	(<24g/LL	.	.	.
.	.	24a/	.	.	.
.	.	24g/JJ	.	.	.
8r	.	8b-\L)	.	.	.
8C/	.	8b-`\J	.	8een'\)	.
!	!	!	!	!LO:LB:g=original	!
=48	=48	=48	=48	=48	=48
8F\	.	8a/	.	8ff\L	.
*	*	*	*	*tuplet	*
!	!	!	!	!LO:TUP:a:problem:klamra łukowa	!
8r	.	8r	.	24cc\L	.
.	.	.	.	24dd\	.
.	.	.	.	24cc\JJ	.
!	!	!	!	!LO:MO:mod=!null:null	!
*	*	*	*	*Xtuplet	*
4r	.	4r	.	(24ff\LL	.
.	.	.	.	24gg\	.
.	.	.	.	24ff\)	.
.	.	.	.	(24aa\	.
.	.	.	.	24bb-\	.
.	.	.	.	24aa\JJ)	.
=49	=49	=49	=49	=49	=49
8FF/	.	8r	.	(4.ccc\	>
8r	.	(24f/LL	.	.	.
.	.	24g/	.	.	.
.	.	24f/JJ	.	.	.
8r	.	8a/)	.	.	.
8F\	.	8r	.	8aa'\)	]]
=50	=50	=50	=50	=50	=50
!	!	!	!	!	!LO:MO:null:mod=.
.	.	.	.	8qqdd/	>
!	!	!	!	!	!LO:MO:null:mod=>
8BB-/	.	8r	.	(4.ddd\	.
8r	.	(24b-\LL	.	.	.
.	.	24cc\	.	.	.
.	.	24b-\JJ	.	.	.
8r	.	8dd\)	.	.	.
8B-\	.	8r	.	8bb-'\)	]]
=51	=51	=51	=51	=51	=51
4c\	.	(4een\	.	4.gg\	<
4d\	.	4ff\)	.	.	.
.	.	.	.	8qqbbn/	.
.	.	.	.	(16.aa\LL	.
.	.	.	.	32gg\JJk)	[[
=52	=52	=52	=52	=52	=52
.	.	.	.	16qqff#X/LL	.
.	.	.	.	16qqgg/	.
.	.	.	.	16qqaa/JJ	.
4c;\	.	4een;\	.	4gg;<\	.
4r	.	4r	.	4r	.
=53	=53	=53	=53	=53	=53
[2FF/	p	8r	.	4.cc\	.
.	.	(8A/L	.	.	.
.	.	8c/)	.	.	.
.	.	8c'/J	.	(24ff\LL	.
.	.	.	.	16qqeen/LL	.
.	.	.	.	16qqff/JJ	.
!	!	!	!	!LO:SIC:s=24cc\:v	!
.	.	.	.	24cc\)	.
!	!	!	!	!LO:SIC:s=24a\JJ):v	!
.	.	.	.	24a\JJ	.
!	!	!LO:LB:g=original	!	!	!
=54	=54	=54	=54	=54	=54
2FF/]	.	8r	.	(4.f/	.
.	.	(8A/L	.	.	.
.	.	8c/)	.	.	.
.	.	8c'/J	.	16a/LL	.
.	.	.	.	16cc/JJ)	.
=55	=55	=55	=55	=55	=55
.	.	.	.	(8qqcc/	.
(4EEn/	.	8r	.	4.c/)	.
.	.	(8G/L	.	.	.
4CC/)	.	8B-/)	.	.	.
!	!	!	!	!LO:SIC:s=(16qqe/LL:v	!
.	.	.	.	(16qqe-/LL	.
.	.	.	.	16qqd/	.
.	.	.	.	16qqc/	.
.	.	.	.	16qqd/JJ	.
.	.	8B-'/J	.	8en/	.
!LO:LB:g=original	!	!	!	!	!
=56	=56	=56	=56	=56	=56
8FF/	.	(8A/L	.	4f/)	.
8r	.	8c/	.	.	.
4r	.	8f/	.	4r	.
.	.	8e-X/J)	.	.	.
=57	=57	=57	=57	=57	=57
.	.	.	.	8qqf/	>
[2BB-/	.	(8d/L	.	(4.ff\	.
.	.	8f/	.	.	.
.	.	8b-/	.	.	.
.	.	8f/J)	.	8dd\)	]]
!	!	!	!	!LO:LB:g=original	!
=58	=58	=58	=58	=58	=58
4BB-/]	.	4d/	.	4.b-\	<
8r	.	8r	.	.	.
.	.	.	.	8qqeen/	.
8BB-/	.	(16d/LL	.	24dd\LL	.
.	.	.	.	8qqcc/	.
!	!	!	!	!	!LO:MO:null:mod=.
.	.	.	.	24b-\	[
.	.	16B-/JJ)	.	.	.
.	.	.	.	8qqa/	.
!	!	!	!	!	!LO:MO:null:mod=[
.	.	.	.	24g\JJ	.
=59	=59	=59	=59	=59	=59
.	.	.	.	8qqg/	.
8C/L	.	16r	.	8f/	.
.	.	16A/LL	.	.	.
8C/	.	16A/	.	4f/	.
.	.	16A/JJ	.	.	.
8CC/	.	16r	.	.	.
.	.	16B-/LL	.	.	.
.	.	.	.	8qqa/	.
8CC/J	.	16B-/	.	8g/	.
.	.	16B-/JJ	.	.	.
=60	=60	=60	=60	=60	=60
8FF/	.	8A/	.	8f/L	p
*	*	*	*	*tuplet	*
!	!	!	!	!LO:TUP:b:problem:klamra łukowa	!
8r	.	8r	.	24cc/L	.
.	.	.	.	24dd/	.
.	.	.	.	24cc/JJ	.
!	!	!	!	!LO:TUP:b:problem:klamra łukowa	!
4r	.	4r	.	24b-/LL	.
.	.	.	.	24cc/	.
.	.	.	.	24b-/	.
.	.	.	.	24g/	.
.	.	.	.	24a/	.
.	.	.	.	24g/JJ	.
=61	=61	=61	=61	=61	=61
!	!	!	!	!LO:MO:mod=!null:null	!
*	*	*	*	*Xtuplet	*
!LO:MO:mod=!null:null	!	!LO:MO:mod=!null:null	!	!	!
!LO:TX:a:t=3	!	!LO:TX:a:t=I	!	!LO:TUP:a:problem:klamra łukowa 	!
!LO:MO:mod=!null:null	!	!	!	!	!
!LO:N:vis=0	!	!	!	!	!
1r	.	2r	.	24a\LL	.
.	.	.	.	24b-\	.
.	.	.	.	24a\	.
.	.	.	.	24ff\	.
.	.	.	.	24gg\	.
.	.	.	.	24ff\JJ	.
!	!	!	!	!LO:TUP:a:problem:klamra łukowa 	!
.	.	.	.	24een\LL	.
.	.	.	.	24ff\	.
.	.	.	.	24ee\	.
.	.	.	.	24gg\	.
.	.	.	.	24aa\	.
.	.	.	.	24gg\JJ	.
=62	=62	=62	=62	=62	=62
!	!	!	!	!	!LO:MO:mod=!null:null
!	!	!	!	!LO:TUP:a:problem:klamra łukowa 	!LO:HP:b:t=cres
.	.	8r	.	24ff\LL	<
.	.	.	.	24gg\	.
.	.	.	.	24ff\	.
!	!	!LO:TUP:a:problem:klamra łukowa	!	!	!
.	.	24cc\LL	p	24aa\	.
.	.	24dd\	.	24bb-\	.
.	.	24cc\JJ	.	24aa\JJ	.
!	!	!LO:MO:mod=!null:null	!	!	!
*	*	*Xtuplet	*	*	*
!	!	!LO:TUP:b:problem:klamra łukowa	!	!LO:TUP:a:problem:klamra łukowa 	!
.	.	24b-/LL	.	24gg\LL	.
.	.	24cc/	.	24aa\	.
.	.	24b-/	.	24gg\	.
.	.	24g/	.	24een\	.
.	.	24a/	.	24ff\	.
.	.	24g/JJ	.	24ee\JJ	.
!	!	!LO:LB:g=original	!	!	!
=63	=63	=63	=63	=63	=63
!	!	!LO:TUP:a:problem:klamra łukowa	!	!LO:TUP:a:problem:klamra łukowa 	!
2r	.	24a\LL	.	24ff\LL	.
.	.	24b-\	.	24gg\	.
.	.	24a\	.	24ff\	.
.	.	24ff\	.	24aa\	.
.	.	24gg\	.	24bb-\	.
.	.	24ff\JJ	.	24aa\JJ	.
!	!	!	!LO:MO:mod=!null:null	!	!
!	!	!LO:TUP:a:problem:klamra łukowa	!LO:HP:b:t=cres	!LO:TUP:a:problem:klamra łukowa 	!
.	.	24een\LL	<	24gg\LL	.
.	.	24ff\	.	24aa\	.
.	.	24ee\	.	24gg\	.
.	.	24gg\	.	24bb-\	.
.	.	24aa\	.	24ccc\	.
.	.	24gg\JJ	.	24bb-\JJ	.
!	!	!	!	!LO:LB:g=original	!
=64	=64	=64	=64	=64	=64
!	!	!	!LO:DY:b:t=F	!LO:TUP:a:problem:klamra łukowa 	!LO:DY:b:t=F
8r	.	16ff\KL	f	24aa\LL	f
.	.	.	.	24bb-\	.
.	.	8cc\	.	.	.
.	.	.	.	24aa\	.
!	!LO:DY:t= :mod=%s	!	!	!	!
!	!LO:MO:mod=!LO&colon;DY&colon;ed=brack	!	!	!	!
!	!null	!	!	!	!
(8F\L	f	.	.	24ccc\	.
.	.	.	.	24ddd\	.
.	.	16cc\Jk	.	.	.
.	.	.	.	24ccc\JJ	.
!	!	!	!	!LO:TUP:a:problem:klamra łukowa 	!
8G\)	.	16cc\KL	.	24bb-\LL	.
.	.	.	.	24gg\	.
.	.	8cc\	.	.	.
.	.	.	.	24bb-\	.
!	!	!	!	!LO:SIC:s=24een\:v	!
8C'\J	.	.	.	24eeno\	.
.	.	.	.	24gg\	.
.	.	16cc\Jk	.	.	.
.	.	.	.	24ee\JJ	.
=65	=65	=65	=65	=65	=65
!	!	!	!	!LO:TUP:a:problem:klamra łukowa 	!
8r	.	16cc\KL	.	24aa\LL	.
.	.	.	.	24bb-\	.
.	.	8cc\	.	.	.
.	.	.	.	24aa\	.
(8F\L	.	.	.	24ccc\	.
.	.	.	.	24ddd\	.
.	.	16cc\Jk	.	.	.
.	.	.	.	24ccc\JJ	.
!	!	!	!	!LO:TUP:a:problem:klamra łukowa 	!
8G\)	.	16cc\KL	.	24bb-\LL	.
.	.	.	.	24gg\	.
.	.	8cc\	.	.	.
.	.	.	.	24bb-\	.
8C'\J	.	.	.	24een\	.
.	.	.	.	24gg\	.
.	.	16cc\Jk	.	.	.
.	.	.	.	24ee\JJ	.
=66	=66	=66	=66	=66	=66
!	!	!	!	!LO:TUP:a:problem:klamra łukowa 	!
!	!LO:DY:t= :mod=%s	!	!	!	!
!	!LO:MO:mod=!LO&colon;DY&colon;ed=brack	!	!	!	!
!	!null	!	!	!	!
8F\	p	8cc\	.	24aaLL 24ff\	p
.	.	.	.	24bb- 24gg\	.
.	.	.	.	24aa 24ff\	.
8r	.	8r	.	24gg 24een\	.
.	.	.	.	24aa 24ff\	.
.	.	.	.	24ggJJ 24ee\	.
!	!	!	!	!LO:TUP:a:problem:klamra łukowa 	!
4r	.	4r	.	24ffLL 24dd\	.
!	!	!	!	!LO:SIC:s=24gg 24ee\:v	!
.	.	.	.	24gg 24een\	.
!	!	!	!	!	!LO:MO:mod=!null:null
!	!	!	!	!	!LO:DY:t=rinf
.	.	.	.	24ff 24dd\	rfz
.	.	.	.	24ee 24cc#X\	.
.	.	.	.	24ff 24dd\	.
.	.	.	.	24eeJJ 24cc#\	.
=67	=67	=67	=67	=67	=67
!LO:MO:mod=!null:null	!	!LO:MO:mod=!null:null	!	!	!
!LO:TX:a:t=2	!	!LO:TX:a:t=2	!	!LO:TUP:a:problem:klamra łukowa 	!
!LO:MO:mod=!null:null	!	!LO:MO:mod=!null:null	!	!	!
!LO:N:vis=0	!	!LO:N:vis=0	!	!	!
1r	.	1r	.	24ffLL 24dd\	p
.	.	.	.	24gg 24een\	.
.	.	.	.	24ff 24dd\	.
.	.	.	.	24ee 24ccn\	.
.	.	.	.	24ff 24dd\	.
.	.	.	.	24eeJJ 24cc\	.
!	!	!	!	!LO:TUP:a:problem:klamra łukowa 	!
.	.	.	.	24ddLL 24b-\	.
.	.	.	.	24ee 24cc\	.
!	!	!	!	!	!LO:MO:mod=!null:null
!	!	!	!	!	!LO:DY:t=rinf
.	.	.	.	24dd 24b-\	rfz
.	.	.	.	24cc 24a\	.
.	.	.	.	24dd 24b-\	.
.	.	.	.	24ccJJ 24a\	.
!	!	!	!	!LO:DY:b:t=F	!
=68	=68	=68	=68	=68	=68
!	!	!	!	!LO:TUP:a:problem:klamra łukowa 	!
.	.	.	.	24ddLL 24b-\	p
.	.	.	.	24een 24cc\	.
.	.	.	.	24dd 24b-\	.
.	.	.	.	24cc 24a\	.
.	.	.	.	24dd 24b-\	.
.	.	.	.	24ccJJ 24a\	.
.	.	.	.	24b-LL 24g/	.
.	.	.	.	24cc 24a/	.
!	!	!	!	!	!LO:MO:mod=!null:null
!	!	!	!	!	!LO:DY:t=rinf
.	.	.	.	24b- 24g/	rfz
.	.	.	.	24a 24f#X/	.
.	.	.	.	24b- 24g/	.
.	.	.	.	24aJJ 24f#/	.
=69	=69	=69	=69	=69	=69
!	!	!	!LO:MO:mod=!null:null	!	!LO:MO:mod=!null:null
!	!	!	!LO:HP:a	!	!LO:DY:t=rinf
!	!	!	!	!	!LO:MO:mod=!LO&colon;HP&colon;ed=brack
!	!	!	!	!	!null
!	!	!	!	!	!LO:MO:null:mod=<
8CC/L	<	8enL 8G/	<	16b-LL 16g/	rfz
.	.	.	.	16a 16f#X/	.
8C/	.	8e 8G/	.	16b- 16g/	.
.	.	.	.	16aJJ 16f#/	.
8C/	.	8e 8G/	.	16b-LL 16g/	.
.	.	.	.	16a 16f#/	.
!	!LO:MO:null:mod=[[	!	!	!	!
8D-X/J	.	8eJ 8G/	[[	16b- 16g/	.
!	!	!	!	!	!LO:MO:null:mod=[
.	.	.	.	16aJJ 16f#/	.
=70	=70	=70	=70	=70	=70
*	*	*	*	*^	*
!	!	!	!	!	!LO:SIC:s=4g/yyyy:v	!
4C;/	.	4en 4G;/	.	4b-T;/ 4gT	4gT/yy	.
!	!LO:MO:null:mod=.	!	!	!	!	!
4r	[	4r	.	4r	4ryyyy	.
*	*	*	*	*v	*v	*
=71	=71	=71	=71	=71	=71
*	*	*tuplet	*	*	*
!	!	!	!	!LO:MO:mod=!LO&colon;TX&colon;a&colon;i&colon;t=dolce	!
!	!	!	!	!LO:TX:a:i:t=dol	!
8FF/	p	(24A/LL	p	(4.cc\	.
.	.	24B-/	.	.	.
.	.	24A/	.	.	.
8r	.	24c/	.	.	.
.	.	24d/	.	.	.
.	.	24c/JJ	.	.	.
8r	.	8A/)	.	.	.
8F\	.	8r	.	8a'\)	.
!	!	!LO:LB:g=original	!	!	!
=72	=72	=72	=72	=72	=72
8BB-/	.	(<24d/LL	.	(4.ff\	.
.	.	24e-X/	.	.	.
.	.	24d/	.	.	.
8r	.	24f/	.	.	.
.	.	24g/	.	.	.
.	.	24f/JJ	.	.	.
8r	.	8b-\)	.	.	.
8BB-/	.	8r	.	8dd'\)	.
=73	=73	=73	=73	=73	=73
!	!	!LO:MO:mod=!null:null	!	!	!
*	*	*Xtuplet	*	*	*
4AA/	.	(24f/LL	.	4.cc\	.
.	.	24g/	.	.	.
.	.	24f/	.	.	.
.	.	24en/	.	.	.
.	.	24f/	.	.	.
.	.	24e/JJ	.	.	.
4BB-/	.	8d/)	.	.	.
.	.	.	.	8qqeen/	.
.	.	8r	.	24dd\LL	.
.	.	.	.	8qqcc/	.
.	.	.	.	24b-\	.
.	.	.	.	8qqa/	.
.	.	.	.	24g\JJ	.
!LO:LB:g=original	!	!	!	!	!
=74	=74	=74	=74	=74	=74
.	.	.	.	8qqg/	.
8C/	.	16r	.	8f/	.
.	.	16A/LL	.	.	.
8r	.	16A/	.	4f/	.
.	.	16A/JJ	.	.	.
8C/L	.	16r	.	.	.
.	.	16G/LL	.	.	.
.	.	.	.	8qqa/	.
8C/J	.	16B-/	.	8g/	.
.	.	16B-/JJ	.	.	.
=75	=75	=75	=75	=75	=75
8FF/	.	8A/	.	8f/L	.
*	*	*	*	*tuplet	*
!	!	!	!	!LO:TUP:b:problem:klamra łukowa	!
8r	.	8r	.	24c/L	.
.	.	.	.	24d/	.
.	.	.	.	24c/JJ	.
!	!	!	!	!LO:MO:mod=!null:null	!
*	*	*	*	*Xtuplet	*
4r	.	4r	.	24f/LL	.
.	.	.	.	24g/	.
.	.	.	.	24f/	.
.	.	.	.	24a/	.
.	.	.	.	24b-/	.
.	.	.	.	24a/JJ	.
!	!	!	!	!LO:LB:g=original	!
=76	=76	=76	=76	=76	=76
8r	.	8r	.	4.cc/	>
*	*	*tuplet	*	*	*
!	!	!LO:TUP:b:problem:klamra łukowa	!	!	!
(8F\L	.	24a/LL	.	.	.
.	.	24b-/	.	.	.
.	.	24a/JJ	.	.	.
8G\)	.	8b-/L	.	.	.
8C'\J	.	8g'/J	.	16b-/LL	.
.	.	.	.	16g/JJ	]]
=77	=77	=77	=77	=77	=77
8F\	.	8a/	.	8f\L	.
8r	.	8r	.	24cc\L	.
.	.	.	.	24dd\	.
.	.	.	.	24cc\JJ	.
4r	.	4r	.	24ff\LL	.
.	.	.	.	24gg\	.
.	.	.	.	24ff\	.
.	.	.	.	24aa\	.
.	.	.	.	24bb-\	.
.	.	.	.	24aa\JJ	.
=78	=78	=78	=78	=78	=78
8r	.	8r	.	4.ccc\	>
!	!	!LO:TUP:b:problem:klamra łukowa	!	!	!
(8F\L	.	24a/LL	.	.	.
.	.	24b-/	.	.	.
.	.	24a/JJ	.	.	.
8G\)	.	8b-/L	.	.	.
8C'\J	.	8g'/J	.	16bb-\LL	.
.	.	.	.	16gg\JJ	]]
!	!	!LO:LB:g=original	!	!	!
=79	=79	=79	=79	=79	=79
8F\L	.	8a/L	.	24ff\LL	.
.	.	.	.	24gg\	.
.	.	.	.	24ff\	.
8A\	.	8a/	.	24aa\	.
.	.	.	.	24bb-\	.
.	.	.	.	24aa\JJ	.
8F\	.	8f/	.	24ff\LL	.
.	.	.	.	24gg\	.
.	.	.	.	24ff\	.
8C\J	.	8c/J	.	24cc\	.
.	.	.	.	24dd\	.
.	.	.	.	24cc\JJ	.
=80	=80	=80	=80	=80	=80
!	!	!	!	!	!LO:MO:mod=!null:null
!	!	!	!	!	!LO:DY:t=rinf
8F\L	.	8f/L	.	24ff\LL	rfz
.	.	.	.	24gg\	.
.	.	.	.	24ff\	.
8A\	.	8a/	.	24aa\	.
.	.	.	.	24bb-\	.
.	.	.	.	24aa\JJ	.
8F\	.	8f/	.	24ff\LL	.
.	.	.	.	24gg\	.
.	.	.	.	24ff\	.
8C\J	.	8c/J	.	24cc\	.
.	.	.	.	24dd\	.
.	.	.	.	24cc\JJ	.
=81	=81	=81	=81	=81	=81
!	!	!	!	!	!LO:DY:b:t=F
8F\	.	8f/L	.	24ff\LL	f
.	.	.	.	24gg\	.
.	.	.	.	24ff\	.
8r	.	8cc/	.	24aa\	.
.	.	.	.	24bb-\	.
.	.	.	.	24aa\JJ	.
8FF/L	.	8a/	.	24ff\LL	.
.	.	.	.	24gg\	.
.	.	.	.	24ff\	.
8F\J	.	8cc/J	.	24aa\	.
.	.	.	.	24bb-\	.
.	.	.	.	24aa\JJ	.
=	=	=	=	=	=
8FF/L	.	8a/L	.	4ff\	.
8F\	.	8a/	.	.	.
8F\J	.	8a/J	.	8r	.
!	!	!	!	!LO:LB:g=original	!
=82:|!	=82:|!	=82:|!	=82:|!	=82:|!	=82:|!
!	!	!	!	!LO:TUP:a:problem:klamra łukowa	!
8r	.	8r	.	24ff\LL	.
.	.	.	.	24gg\	.
.	.	.	.	24ff\JJ	.
=83	=83	=83	=83	=83	=83
!	!	!LO:MO:mod=!null:null	!	!	!
*	*	*Xtuplet	*	*	*
!	!LO:DY:b:t=F	!	!LO:DY:b:t=F	!	!LO:DY:b:t=F
8BB-/	f	(24d/LL	f	4.aa-X\	f
.	.	24e-X/	.	.	.
.	.	24d/	.	.	.
8r	.	24f/	.	.	.
.	.	24g/	.	.	.
.	.	24f/JJ	.	.	.
8r	.	8d/)	.	.	.
!	!	!	!	!LO:TUP:a:problem:klamra łukowa	!
8B-\	.	8r	.	24ff\LL	.
.	.	.	.	24gg\	.
.	.	.	.	24ff\JJ	.
=84	=84	=84	=84	=84	=84
8BB-/	.	(24d/LL	.	4.aa-X\	.
.	.	24e-/	.	.	.
.	.	24d/	.	.	.
8r	.	24f/	.	.	.
.	.	24g/	.	.	.
.	.	24f/JJ	.	.	.
8r	.	8d/)	.	.	.
!	!	!	!	!LO:TUP:a:problem:klamra łukowa	!
8B-\	.	8r	.	24ff\LL	.
.	.	.	.	24gg\	.
.	.	.	.	24ff\JJ	.
=85	=85	=85	=85	=85	=85
8A-X\L	.	8a-X/L	.	(24aa-X\LL	.
.	.	.	.	24bb-\	.
.	.	.	.	24aa-\)	.
8F\	.	8f/	.	(24ff\	.
.	.	.	.	24gg\	.
.	.	.	.	24ff\JJ)	.
8D\	.	8d/	.	(24cc\LL	.
.	.	.	.	24dd\	.
.	.	.	.	24cc\)	.
8F\J	.	8f/J	.	(24ff\	.
.	.	.	.	24gg\	.
.	.	.	.	24ff\JJ)	.
!LO:LB:g=original	!	!	!	!	!
=86	=86	=86	=86	=86	=86
8A-X\L	.	8a-X/L	.	(24aa-X\LL	.
.	.	.	.	24bb-\	.
.	.	.	.	24aa-\)	.
8F\	.	8f/	.	(24ff\	.
.	.	.	.	24gg\	.
.	.	.	.	24ff\JJ)	.
8D\	.	8d/	.	(24cc\LL	.
.	.	.	.	24dd\	.
.	.	.	.	24cc\)	.
8BB-\J	.	8B-/J	.	(24b-\	.
.	.	.	.	24cc\	.
.	.	.	.	24b-\JJ)	.
!	!	!LO:LB:g=original	!	!	!
=87	=87	=87	=87	=87	=87
2E-\	.	(16e-/LL	.	4ee- 4e-/	.
.	.	16B-/)	.	.	.
.	.	(16G/	.	.	.
.	.	16B-/JJ)	.	.	.
.	.	(16G/LL	p	8r	.
.	.	16B-/)	.	.	.
!	!	!	!	!LO:MO:mod=!LO&colon;TX&colon;a&colon;i&colon;t=dolce	!
!	!	!	!	!LO:TX:b:i:t=dol	!
.	.	(16G/	.	16gg\LL	.
.	.	16B-/JJ)	.	16aa-X\JJ	.
=88	=88	=88	=88	=88	=88
[2EE-/	p	(16e-/LL	.	(16bb-\LL	.
.	.	16g/)	.	16ccc\)	.
.	.	(16b-/	.	16bb-'\	.
.	.	16g/JJ)	.	16aan'\JJ	.
.	.	(16e-/LL	.	8bb-'\L	.
.	.	16g/)	.	.	.
.	.	(16e-/	.	8bb-'\J	.
.	.	16g/JJ)	.	.	.
=89	=89	=89	=89	=89	=89
8EE-/L]	.	(16e-/LL	.	4.bb-\	.
.	.	16g/)	.	.	.
8BB-'/	.	(16b-/	.	.	.
.	.	16g/JJ)	.	.	.
8GG'/	.	(16e-/LL	.	.	.
.	.	16g/)	.	.	.
8EE-'/J	.	(16e-/	.	16gg\LL	.
.	.	16g/JJ)	.	16bb-\JJ	.
!	!	!	!	!LO:PB:g=original	!
=90	=90	=90	=90	=90	=90
2BB-/	.	(16d/LL	.	(16aa-X\LL	.
.	.	16f/)	.	16gg\)	.
.	.	(16b-/	.	16ff'\	.
.	.	16f/JJ)	.	16ee-'\JJ	.
.	.	(16a-X/LL	.	16dd\LL	.
.	.	16f/)	.	16b-\	.
.	.	(16a-/	.	16cc\	.
.	.	16f/JJ)	.	16dd\JJ	.
=91	=91	=91	=91	=91	=91
8EE-/	.	8g/	.	16ee-\LL	.
.	.	.	.	16dd\	.
8r	.	8r	.	16ee-\	.
.	.	.	.	16ff\JJ	.
4r	.	16e-/LL	.	16gg\LL	.
.	.	16d/	.	16ff\	.
.	.	16e-/	.	16gg\	.
.	.	16f/JJ	.	16aa-X\JJ	.
=92	=92	=92	=92	=92	=92
!	!	!	!	!	!LO:MO:mod=!null:null
!	!	!	!	!	!LO:HP:b:t=cres
2E-\	.	16g/LL	.	16bb-\LL	<
.	.	16a-X/	.	16ccc\	.
.	.	16g/	.	16bb-\	.
.	.	16f#X/JJ	.	16aan\JJ	.
.	.	8g/	.	8bb-\L	.
*	*	*	*	*tuplet	*
!	!	!	!	!LO:TUP:a:problem:klamra łukowa	!
.	.	8r	.	24bb-\L	.
.	.	.	.	24ccc\	.
.	.	.	.	24bb-\JJ	.
!	!	!LO:LB:g=original	!	!	!
=93	=93	=93	=93	=93	=93
!	!	!	!LO:DY:t= :mod=%s	!	!LO:MO:mod=!null:null
!	!	!	!LO:MO:mod=!LO&colon;DY&colon;ed=	!	!LO:DY:t=rinf
!	!	!	!null	!	!
8r	.	(<24g/LL	rfz	4.ddd-X\	rfz
!	!	!	!LO:MO:mod=!null:null	!	!
!	!	!	!LO:DY:t=rinf	!	!
!	!	!	!LO:MO:mod=!null:null	!	!
.	.	24a-X/	rfz	.	.
.	.	24g/	.	.	.
!LO:TX:t=P:problem:mixed beam	!LO:MO:mod=!null:null	!	!	!	!
!	!LO:DY:t=rinf	!	!	!	!
8E-\L	rfz	24b-/	.	.	.
.	.	24cc/	.	.	.
.	.	24b-/JJ	.	.	.
8EE-/J	.	8dd-X\)	.	.	.
!	!	!	!	!LO:TUP:a:problem:klamra łukowa	!
8r	.	8r	.	24bb-\LL	>
.	.	.	.	24ccc\	.
.	.	.	.	24bb-\JJ	]]
=94	=94	=94	=94	=94	=94
!	!	!	!LO:DY:t= :mod=%s	!	!LO:MO:mod=!null:null
!	!	!	!LO:MO:mod=!LO&colon;DY&colon;ed=brack	!	!LO:DY:t=rinf
!	!	!	!null	!	!
8r	.	(<24g/LL	rfz	4.ddd-X\	rfz
.	.	24a-X/	.	.	.
.	.	24g/	.	.	.
!LO:TX:t=P:problem:mixed beam	!	!	!	!	!
!	!LO:DY:t= :mod=%s	!	!	!	!
!	!LO:MO:mod=!LO&colon;DY&colon;ed=brack	!	!	!	!
!	!null	!	!	!	!
8E-\L	rfz	24b-/	.	.	.
.	.	24cc/	.	.	.
.	.	24b-/JJ	.	.	.
8EE-/J	.	8dd-X\)	.	.	.
!	!	!	!	!LO:TUP:a:problem:klamra łukowa	!
8r	.	8r	.	24bb-\LL	>
.	.	.	.	24ccc\	.
.	.	.	.	24bb-\JJ	]]
=95	=95	=95	=95	=95	=95
!	!	!	!	!LO:MO:mod=!null:null	!
*	*	*	*	*Xtuplet	*
!	!LO:DY:b:t=F	!	!LO:DY:b:t=F	!	!LO:DY:b:t=F
8E-\L	f	8dd-X/L	f	(24ddd-X\LL	f
.	.	.	.	24ccc\	.
.	.	.	.	24ddd-\)	.
8B-\	.	8b-/	.	(24bb-\	.
.	.	.	.	24aan\	.
.	.	.	.	24bb-\JJ)	.
8G\	.	8g/	.	(24gg\LL	.
.	.	.	.	24ff\	.
.	.	.	.	24gg\)	.
8E-\J	.	8e-/J	.	(24ee-\	.
.	.	.	.	24ddn\	.
.	.	.	.	24ee-\JJ)	.
=96	=96	=96	=96	=96	=96
4A-X\	.	(16a-X/LL	.	4aa-X\	.
.	.	16e-/)	.	.	.
.	.	(16c/	.	.	.
.	.	16e-/JJ)	.	.	.
4r	.	(16c/LL	p	8r	.
!	!	!LO:SIC:s=16e-/):v	!	!	!
.	.	16e-/	.	.	.
!	!	!LO:SIC:s=(16c/:v	!	!	!
.	.	16c/	.	16cc\LL	p
.	.	16e-/JJ)	.	16dd-X\JJ	.
!	!	!	!	!LO:LB:g=original	!
=97	=97	=97	=97	=97	=97
!	!LO:DY:t= :mod=%s	!	!	!	!
!	!LO:MO:mod=!LO&colon;DY&colon;ed=brack	!	!	!	!
!	!null	!	!	!	!
[2AA-X/	p	(16A-X/LL	.	16ee-\LL	.
.	.	16c/)	.	16ff\	.
.	.	16e-'/	.	16ee-\	.
.	.	16c'/JJ	.	16ddn\JJ	.
.	.	(16A-/LL	.	8ee-\L	.
.	.	16c/)	.	.	.
.	.	(16A-/	.	8ee-\J	.
.	.	16c/JJ)	.	.	.
=98	=98	=98	=98	=98	=98
8AA-/L]	.	(16A-X/LL	.	4.ee-\	.
.	.	16c/)	.	.	.
8E-/	.	16e-'/	.	.	.
.	.	16c'/JJ	.	.	.
8C/	.	(16A-/LL	.	.	.
.	.	16c/)	.	.	.
8AA-yX/J	.	(16A-/	.	16cc\LL	.
.	.	16c/JJ)	.	16ee-\JJ	.
!	!	!LO:LB:g=original	!	!	!
=99	=99	=99	=99	=99	=99
(2EE-/	.	(16G/LL	.	16dd-X\LL	.
.	.	16B-/)	.	16cc\	.
.	.	16e-'/	.	16b-\	.
.	.	16B-'/JJ	.	16a-X\JJ	.
.	.	(16G/LL	.	16g/LL	.
.	.	16B-/)	.	16e-/	.
.	.	(16G/	.	16f/	.
.	.	16B-/JJ)	.	16g/JJ	.
=100	=100	=100	=100	=100	=100
8AA-X/)	.	(24A-X/LL	.	4a-X\	.
.	.	24B-/	.	.	.
.	.	24A-/	.	.	.
8r	.	24c/	.	.	.
.	.	24d-X/	.	.	.
.	.	24c/JJ	.	.	.
8r	.	8e-/L)	.	8r	.
*	*	*	*	*tuplet	*
!	!	!	!	!LO:TUP:a:problem:klamra łukowa	!
8A\	.	8e-'/J	.	24cc\LL	.
.	.	.	.	24dd-X\	.
.	.	.	.	24cc\JJ	.
=101	=101	=101	=101	=101	=101
!	!	!	!	!LO:MO:mod=!null:null	!
*	*	*	*	*Xtuplet	*
!	!	!	!	!LO:TUP:a:problem:klamra łukowa 	!
8G\L	.	16e-/KL	.	24b-\LL	.
.	.	.	.	24cc\	.
.	.	8e-/	.	.	.
.	.	.	.	24b-\	.
8B-\	.	.	.	24dd-X\	.
.	.	.	.	24ee-\	.
.	.	16e-/Jk	.	.	.
.	.	.	.	24dd-\JJ	.
!	!	!	!	!LO:TUP:a:problem:klamra łukowa 	!
8A-X\	.	16e-/KL	.	24cc\LL	.
.	.	.	.	24dd-\	.
.	.	8e-/	.	.	.
.	.	.	.	24cc\	.
8c\J	.	.	.	24ee-\	.
.	.	.	.	24ff\	.
.	.	16e-/Jk	.	.	.
.	.	.	.	24ee-\JJ	.
=102	=102	=102	=102	=102	=102
8B-\L	.	16e-/KL	.	16dd-X\KL	.
.	.	8e-/	.	8bb-\	.
8d-X\	.	.	.	.	.
.	.	16e-/Jk	.	16gg\Jk	.
8c\	.	16e-/KL	.	24aa-X`\LL	.
.	.	.	.	24gg`\	.
.	.	8e-/	.	.	.
.	.	.	.	24ff`\	.
8A-X\J	.	.	.	24ee-`\	.
.	.	.	.	24dd-`\	.
.	.	16e-/Jk	.	.	.
.	.	.	.	24cc`\JJ	.
!LO:LB:g=original	!	!	!	!	!
=103	=103	=103	=103	=103	=103
!	!	!	!	!LO:TUP:a:problem:klamra łukowa 	!
8G\L	.	16e-/KL	.	24b-\LL	.
.	.	.	.	24cc\	.
.	.	8e-/	.	.	.
.	.	.	.	24b-\	.
8B-\	.	.	.	24dd-X\	.
.	.	.	.	24ee-\	.
.	.	16e-/Jk	.	.	.
.	.	.	.	24dd-\JJ	.
!	!	!	!	!LO:TUP:a:problem:klamra łukowa 	!
8A-X\	.	16e-/KL	.	24cc\LL	.
.	.	.	.	24dd-\	.
.	.	8e-/	.	.	.
.	.	.	.	24cc\	.
8c\J	.	.	.	24ee-\	.
.	.	.	.	24ff\	.
.	.	16e-/Jk	.	.	.
.	.	.	.	24ee-\JJ	.
!	!	!	!	!LO:LB:g=original	!
=104	=104	=104	=104	=104	=104
!	!	!	!	!	!LO:MO:mod=!null:null
!	!	!	!	!	!LO:DY:t=rinf
8B-\L	.	16e-/KL	.	16b-\KL	rfz
.	.	8e-/	.	8bb-\	.
8d-X\	.	.	.	.	.
.	.	16e-/Jk	.	16gg\Jk	.
8c\J	.	8e-/	.	8aa-X\L	.
*	*	*	*	*tuplet	*
!	!	!	!	!LO:TUP:a:problem:klamra łukowa 	!
8r	.	8r	.	24ff\L	.
.	.	.	.	24een\	.
.	.	.	.	24ff\JJ	.
=105	=105	=105	=105	=105	=105
!	!	!	!	!LO:MO:mod=!null:null	!
*	*	*	*	*Xtuplet	*
!	!LO:DY:t= :mod=%s	!	!	!	!
!	!LO:MO:mod=!LO&colon;DY&colon;ed=brack	!	!	!	!
!	!null	!	!	!	!
[2C/	p	8g/L	p	24een\LL	.
.	.	.	.	24ff\	.
.	.	.	.	24ee\	.
.	.	8b-/	.	24gg\	.
.	.	.	.	24aa-X\	.
.	.	.	.	24gg\JJ	.
!	!	!	!	!LO:TUP:a:problem:klamra łukowa 	!
.	.	8a-X/	.	24ff\LL	.
.	.	.	.	24gg\	.
.	.	.	.	24ff\	.
.	.	8cc/J	.	24aa-\	.
.	.	.	.	24bb-\	.
.	.	.	.	24aa-\JJ	.
!	!	!LO:LB:g=original	!	!	!
=106	=106	=106	=106	=106	=106
!	!	!	!	!	!LO:MO:mod=!null:null
!	!	!	!	!	!LO:DY:t=rinf
4C/]	.	16b-\KL	.	16b-\KL	rfz
.	.	8dd-X\	.	8bb-\	.
.	.	16b-\Jk	.	16gg\Jk	.
8F\	.	8a-X/	.	24ff\LL	.
.	.	.	.	24aa-X\	.
.	.	.	.	24bb-\	.
8r	.	8r	.	24ccc\	.
.	.	.	.	24bb-\	.
.	.	.	.	24aa-\JJ	.
=107	=107	=107	=107	=107	=107
8BB-/L	.	8dd-X\L	.	(24gg\LL	.
.	.	.	.	24aa-X\	.
.	.	.	.	24gg\)	.
8BB-/	.	8d/J	.	(24bb-\	.
.	.	.	.	24ccc\	.
.	.	.	.	24bb-\JJ)	.
(8BB-/	.	(8d/L	.	24ddd-X`\LL	.
.	.	.	.	24ccc`\	.
.	.	.	.	24bb-`\	.
8BBn/J)	.	8dn/J)	.	24aa-`\	.
.	.	.	.	24gg`\	.
.	.	.	.	24ff`\JJ	.
=108	=108	=108	=108	=108	=108
[2C/	.	16en'/LL	.	16een\KL	.
.	.	16g'/	.	8ccc\	.
.	.	16e'/	.	.	.
.	.	16g'/JJ	.	16ccc\Jk	.
.	.	16f/LL	.	4bbnt\	.
.	.	16a-X/	.	.	.
.	.	16f/	.	.	.
.	.	16a-/JJ	.	.	.
!	!	!	!	!LO:LB:g=original	!
=109	=109	=109	=109	=109	=109
!	!	!	!LO:DY:b:t=F	!	!
2C/_	.	16en/LL	f	16ccc\KL	.
.	.	16g/	.	8cc\	.
.	.	16e/	.	.	.
.	.	16g/JJ	.	16cc\Jk	.
.	.	16f/LL	.	4bnt\	.
.	.	16a-X/	.	.	.
.	.	16f/	.	.	.
.	.	16a-/JJ	.	.	.
=110	=110	=110	=110	=110	=110
8C'/L]	.	8g'/L	.	8cc/L	.
8CC'/J	.	8enJ 8G'/	.	8ccJ 8en`/	.
4r	.	4r	.	8r	.
.	.	.	.	16a-X/LL	p
.	.	.	.	16b-X/JJ	.
=111	=111	=111	=111	=111	=111
!LO:MO:mod=!null:null	!	!	!	!	!
!LO:TX:a:t=I	!	!	!	!	!
2r	.	4r	.	(16cc\LL	.
.	.	.	.	16dd-X\	.
.	.	.	.	16cc\)	.
.	.	.	.	16bn`\JJ	.
.	.	8r	.	8cc\L	.
.	.	16A-X'/LL	p	8cc\J	.
.	.	16B-'/JJ	.	.	.
=112	=112	=112	=112	=112	=112
.	.	.	.	8qqcc/	.
4r	.	(16c/LL	.	8aa-X\	.
!	!	!LO:SIC:s=16d-X/:v	!	!	!
.	.	16d-X/)	.	.	.
!	!	!LO:SIC:s=16c/):v	!	!	!
.	.	16c/	.	4aa-\	.
.	.	16Bn'/JJ	.	.	.
8r	.	8c/L	.	.	.
!	!LO:DY:t= :mod=%s	!	!	!	!
!	!LO:MO:mod=!LO&colon;DY&colon;ed=brack	!	!	!	!
!	!null	!	!	!	!
16AA-X'/LL	p	8c/J	.	8gg\	.
16BB-'/JJ	.	.	.	.	.
!	!	!LO:PB:g=original	!	!	!
=113	=113	=113	=113	=113	=113
.	.	8qqc/	.	.	.
(16C/LL	.	8a-X/	.	8ff\	.
!LO:SIC:s=16D-X/:v	!	!	!	!	!
16D-X/)	.	.	.	.	.
!	!	!	!LO:MO:mod=!null:null	!	!
!LO:SIC:s=16C/):v	!	!	!LO:DY:t=rinf	!	!
16C/	.	4a-/	rfz	4ff\	.
16BBn'/JJ	.	.	.	.	.
8C'/L	.	.	.	.	.
8C'/J	.	8g/	.	8een\	.
=114	=114	=114	=114	=114	=114
8qqC/	.	.	.	.	.
8A-X\	.	(16f/LL	.	8ccc\	.
.	.	16g/	.	.	.
!	!LO:MO:mod=!null:null	!	!	!	!
!	!LO:DY:t=rinf	!	!	!	!
4A-\	rfz	16f/)	.	4ccc\	.
.	.	16en'/JJ	.	.	.
.	.	8f/L	.	.	.
8G\	.	8g/J	.	8bb-\	.
=115	=115	=115	=115	=115	=115
4F\	.	8cc\	.	(16aa-X\LL	.
.	.	.	.	16bb-\	.
.	.	4cc\	.	16aa-\)	.
.	.	.	.	16gg`\JJ	.
[4En'\	.	.	.	8aa-\L	.
.	.	8b-\	.	8gg\J	.
=116	=116	=116	=116	=116	=116
!	!LO:MO:mod=!LO&colon;HP&colon;ed=brack	!	!	!	!
!	!null	!	!	!	!
!	!LO:MO:null:mod=<	!	!	!	!
8E/L]	.	2a-XT/	<[	2ffT\	<[
16D-X/L	.	.	.	.	.
16C/JJ	.	.	.	.	.
8BBn/L	.	.	.	.	.
!	!LO:MO:null:mod=[[	!	!	!	!
8BB/J	.	.	.	.	.
!LO:LB:g=original	!	!	!	!LO:LB:g=original	!
=117	=117	=117	=117	=117	=117
!	!LO:DY:b:t=F	!	!LO:DY:b:t=F	!	!LO:DY:b:t=F
8C/	f	8g/	f	24een\LL	f
.	.	.	.	24gg\	.
.	.	.	.	24ee\	.
8r	.	8r	.	24bb-\	.
.	.	.	.	24gg\	.
.	.	.	.	24ee\JJ	.
(<4D-X\	.	4b- [4g/	.	24dd-X\LL	.
.	.	.	.	24ee\	.
.	.	.	.	24gg\	.
.	.	.	.	24bb-\	.
.	.	.	.	24gg\	.
.	.	.	.	24ee\JJ	.
=118	=118	=118	=118	=118	=118
8C/)	.	8b- 8g/]	.	24cc\LL	.
.	.	.	.	24bb-\	.
.	.	.	.	24aa-X\	.
8r	.	8r	.	24gg\	.
.	.	.	.	24ff\	.
.	.	.	.	24een\JJ	.
8r	.	8r	.	24dd-X\LL	.
.	.	.	.	24cc\	.
.	.	.	.	24bn\	.
8En\	.	8g/	.	24cc\	.
.	.	.	.	24dd-\	.
.	.	.	.	24b-X\JJ	.
=119	=119	=119	=119	=119	=119
8F\	.	8c/	.	24a-X/LL	.
.	.	.	.	24f/	.
.	.	.	.	24g/	.
8r	.	8r	.	24a-/	.
.	.	.	.	24b-/	.
.	.	.	.	24cc/JJ	.
4r	.	4r	.	24dd-X\LL	.
.	.	.	.	24een\	.
.	.	.	.	24ff\	.
.	.	.	.	24gg\	.
!	!	!	!	!LO:SIC:s=24aa-\:v	!
.	.	.	.	24aa\	.
.	.	.	.	24bb-\JJ	.
=120	=120	=120	=120	=120	=120
!LO:MO:mod=!null:null	!	!LO:MO:mod=!null:null	!	!	!
!LO:TX:a:t=I	!	!LO:TX:a:t=I	!	!	!
2r	.	2r	.	24ccc\LL	.
.	.	.	.	24aa-X\	.
.	.	.	.	24bb-\	.
.	.	.	.	24ccc\	.
.	.	.	.	24ddd-X\	.
.	.	.	.	24eeen\JJ	.
.	.	.	.	24fff\LL	.
.	.	.	.	24ccc\	.
.	.	.	.	24bb-\	.
.	.	.	.	24aa-\	.
.	.	.	.	24gg\	.
.	.	.	.	24ff\JJ	.
!	!	!	!	!LO:LB:g=original	!
=121	=121	=121	=121	=121	=121
!	!LO:DY:t= :mod=%s	!	!	!	!
!	!LO:MO:mod=!LO&colon;DY&colon;ed=brack	!	!	!	!
!	!null	!	!	!	!
(<4C/	p	2b- [2g/	p	24een\LL	.
.	.	.	.	24gg\	.
.	.	.	.	24ee\	.
.	.	.	.	24bb-\	.
.	.	.	.	24gg\	.
.	.	.	.	24ee\JJ	.
(<4D-X\)	.	.	.	24dd-X\LL	.
.	.	.	.	24ee\	.
.	.	.	.	24gg\	.
.	.	.	.	24bb-\	.
.	.	.	.	24gg\	.
.	.	.	.	24ee\JJ	.
=122	=122	=122	=122	=122	=122
8C/)	.	8b- 8g/]	.	24cc\LL	.
.	.	.	.	24bb-\	.
.	.	.	.	24aa-X\	.
8r	.	8r	.	24gg\	.
.	.	.	.	24ff\	.
!	!	!	!	!LO:SIC:s=24ee\JJ:v	!
.	.	.	.	24ee-\JJ	.
8r	.	8r	.	24dd-X\LL	.
.	.	.	.	24cc\	.
.	.	.	.	24bn\	.
8En\	.	8g/	.	24cc\	.
.	.	.	.	24dd-\	.
.	.	.	.	24b\JJ	.
=123	=123	=123	=123	=123	=123
8F\	.	8c/	.	24a-X/LL	.
.	.	.	.	24f/	.
.	.	.	.	24g/	.
8r	.	8r	.	24a-/	.
.	.	.	.	24b-/	.
.	.	.	.	24cc/JJ	.
4r	.	4r	.	24dd-X\LL	.
.	.	.	.	24een\	.
.	.	.	.	24ff\	.
.	.	.	.	24gg\	.
!	!	!	!	!LO:SIC:s=24aa-\:v	!
.	.	.	.	24aa\	.
.	.	.	.	24bb-\JJ	.
=124	=124	=124	=124	=124	=124
!LO:MO:mod=!null:null	!	!LO:MO:mod=!null:null	!	!	!
!LO:TX:a:t=2	!	!LO:TX:a:t=I	!	!	!
!LO:MO:mod=!null:null	!	!	!	!	!
!LO:N:vis=0	!	!	!	!	!
1r	.	2r	.	24ccc\LL	.
.	.	.	.	24aa-X\	.
.	.	.	.	24bb-\	.
.	.	.	.	24ccc\	.
.	.	.	.	24ddd-X\	.
.	.	.	.	24eeen\JJ	.
.	.	.	.	24fff\LL	.
.	.	.	.	24ccc\	.
.	.	.	.	24bb-\	.
.	.	.	.	24aa-\	.
.	.	.	.	24gg\	.
.	.	.	.	24ff\JJ	.
!	!	!	!	!LO:LB:g=original	!
=125	=125	=125	=125	=125	=125
!	!	!	!	!LO:MO:mod=!LO&colon;TX&colon;a&colon;i&colon;t=dolce	!
!	!	!	!	!LO:TX:b:i:t=dol	!
.	.	16b-'\LL	pp	[4gg-X\	.
.	.	16dd-X'\	.	.	.
.	.	16b-'\	.	.	.
.	.	16dd-'\JJ	.	.	.
.	.	16b-'\LL	.	16gg-\LL]	.
.	.	16dd-'\	.	(16bb-\	.
.	.	16b-'\	.	16aa-X\	.
.	.	16dd-'\JJ	.	16gg-\JJ)	.
!	!	!LO:LB:g=original	!	!	!
=126	=126	=126	=126	=126	=126
8r	.	16b-\LL	.	(8ff\L	.
.	.	16cc\	.	.	.
8c'\L	p	16b-\	.	8eent\	.
.	.	16cc\JJ	.	.	.
8f'\	.	16a-X\LL	.	8ff\J)	.
.	.	16cc\	.	.	.
8F'\J	.	16a-\	.	8r	.
.	.	16cc\JJ	.	.	.
=127	=127	=127	=127	=127	=127
!LO:MO:mod=!null:null	!	!	!	!	!
!LO:TX:a:t=I	!	!	!	!	!
2r	.	16b-\LL	.	[4gg-X\	.
.	.	16dd-X\	.	.	.
.	.	16b-\	.	.	.
.	.	16dd-\JJ	.	.	.
.	.	16b-\LL	.	16gg-\LL]	.
.	.	16dd-\	.	(16bb-\	.
.	.	16b-\	.	16aa-X\	.
.	.	16dd-\JJ	.	16gg-\JJ)	.
=128	=128	=128	=128	=128	=128
8r	.	16b-\LL	.	(8ff\L	.
.	.	16cc\	.	.	.
8c\L	.	16b-\	.	8eent\	.
.	.	16cc\JJ	.	.	.
8f\	.	16a-X\LL	.	8ff\J)	.
.	.	16cc\	.	.	.
8F\J	.	16a-\	.	8r	.
.	.	16cc\JJ	.	.	.
=129	=129	=129	=129	=129	=129
!LO:MO:mod=!null:null	!	!	!	!	!
!LO:TX:a:t=I	!	!	!	!	!
2r	.	16a-X\LL	.	[4ff\	.
.	.	16cc-X\	.	.	.
.	.	16a-\	.	.	.
.	.	16cc-\JJ	.	.	.
.	.	16a-\LL	.	16ff\LL]	.
.	.	16cc-\	.	(16aa-X\	.
.	.	16a-\	.	16gg-X\	.
.	.	16cc-\JJ	.	16ff\JJ)	.
=130	=130	=130	=130	=130	=130
8r	.	16f/LL	.	(8ee-\L	.
.	.	16b-/	.	.	.
!	!	!LO:SIC:s=16a-/:v	!	!	!
8B-\L	.	16a/	.	8ddnt\	.
.	.	16b-/JJ	.	.	.
8G-X\	.	16e-/LL	.	8ee-\J)	.
.	.	16b-/	.	.	.
8D\J	.	16g-X/	.	8r	.
.	.	16b-/JJ	.	.	.
=131	=131	=131	=131	=131	=131
!	!	!	!	!	!LO:MO:mod=!null:null
!LO:TX:t=P:problem:mixed beam	!	!	!	!	!LO:DY:t=rinf
!	!	!	!	!	!LO:MO:mod=!null:null
.	.	.	.	8qqee-/	rfz
!	!	!	!	!	!LO:DY:t= :mod=%s
!	!	!	!	!	!LO:MO:mod=!LO&colon;DY&colon;ed=
!	!	!	!	!	!null
8E-\L	.	16g-X\LL	.	4.gg-X\	rfz
.	.	16b-\	.	.	.
8EE-/	.	16ee-\	.	.	.
.	.	16b-\JJ	.	.	.
8E-\	.	8g-/L	.	.	.
!	!	!	!	!LO:TUP:a:problem:klamra łukowa	!
8En\J	.	8gn/J	.	24ee-\LL	.
.	.	.	.	24cc\	.
.	.	.	.	24b-\JJ	.
!	!	!LO:LB:g=original	!	!	!
=132	=132	=132	=132	=132	=132
!	!	!	!	!	!LO:DY:b:t=F
8F\	.	8c/	.	8an\L	f
!	!	!	!	!LO:TUP:a:problem:klamra łukowa 	!
8r	.	8r	.	24ff\L	.
.	.	.	.	24een\	.
.	.	.	.	24ff\JJ	.
4r	.	4r	.	(24dd-X\LL	.
.	.	.	.	24cc\	.
.	.	.	.	24dd-\)	.
.	.	.	.	(24b-\	.
.	.	.	.	24a\	.
.	.	.	.	24b-\JJ)	.
!	!	!	!	!LO:LB:g=original	!
=133	=133	=133	=133	=133	=133
8r	.	8r	.	8a`/L	.
!	!LO:DY:b:t=F	!	!LO:DY:b:t=F	!LO:TUP:a:problem:klamra łukowa 	!
8F\L	f	8f/L	f	24f/L	.
.	.	.	.	24en/	.
.	.	.	.	24f/JJ	.
8D-X\	.	8d-X/	.	(24d-X/LL	.
.	.	.	.	24c/	.
.	.	.	.	24d-/)	.
8BB-\J	.	8B-/J	.	(24B-/	.
.	.	.	.	24A/	.
.	.	.	.	24B-/JJ)	.
=134	=134	=134	=134	=134	=134
2FF;/	.	2An;/	.	2f 2A;/	.
=135	=135	=135	=135	=135	=135
!	!LO:DY:t= :mod=%s	!	!	!LO:MO:mod=!LO&colon;TX&colon;a&colon;i&colon;t=dolce	!
!	!LO:MO:mod=!LO&colon;DY&colon;ed=brack	!	!	!LO:TX:b:i:t=dol	!
!	!null	!	!	!	!
2BB-/	p	8r	.	(4.ff\	.
.	.	(8d/L	p	.	.
.	.	8f/)	.	.	.
.	.	8f'/J	.	8dd\)	.
!LO:LB:g=original	!	!	!	!	!
=136	=136	=136	=136	=136	=136
2BB-/	.	8r	.	(4.b-\	.
.	.	(8d/L	.	.	.
.	.	8f/)	.	.	.
.	.	8f'/J	.	8dd\)	.
=137	=137	=137	=137	=137	=137
8AA/	.	8r	.	(4.f/	.
8r	.	(8c/L	.	.	.
8FF/	.	8e-/)	.	.	.
8r	.	8e-'/J	.	8a/)	.
=138	=138	=138	=138	=138	=138
8BB-/	.	8d/	.	8b-/L	.
*	*	*	*	*tuplet	*
!	!	!	!	!LO:TUP:b:problem:klamra łukowa 	!
8r	.	8r	.	24f/L	.
.	.	.	.	24g/	.
.	.	.	.	24f/JJ	.
!	!	!	!	!LO:MO:mod=!null:null	!
*	*	*	*	*Xtuplet	*
4r	.	4r	.	(24b-\LL	.
.	.	.	.	24cc\	.
.	.	.	.	24b-\)	.
.	.	.	.	(24dd\	.
.	.	.	.	24ee-\	.
.	.	.	.	24dd\JJ)	.
=139	=139	=139	=139	=139	=139
8BB-/	.	8r	.	(4.ff\	>
*	*	*tuplet	*	*	*
8r	.	(24B-/LL	.	.	.
.	.	24c/	.	.	.
.	.	24B-/JJ	.	.	.
8r	.	8d/)	.	.	.
8B-\	.	8r	.	8dd\)	]]
=140	=140	=140	=140	=140	=140
.	.	.	.	8qqg	.
8E-\	.	8r	.	(4.gg\	>
!	!	!LO:MO:mod=!null:null	!	!	!
*	*	*Xtuplet	*	*	*
8r	.	(24e-/LL	.	.	.
.	.	24f/	.	.	.
.	.	24e-/JJ	.	.	.
8r	.	8g/)	.	.	.
8C/	.	8r	.	8ee-\)	]]
!	!	!LO:LB:g=original	!	!	!
=141	=141	=141	=141	=141	=141
!	!LO:MO:mod=!LO&colon;HP&colon;ed=brack	!	!	!	!
!	!null	!	!	!	!
!	!LO:MO:null:mod=<	!	!	!	!
4F\	.	(<4a/	<	4.cc\	<
4G\	.	4b-\	.	.	.
.	.	.	.	8qqeen/	.
.	.	.	.	16.dd\LL	.
.	.	.	.	32cc\JJk	.
=142	=142	=142	=142	=142	=142
.	.	.	.	16qqbn/LL	.
.	.	.	.	16qqcc/	.
.	.	.	.	16qqdd/JJ	.
!	!LO:MO:null:mod=[	!	!LO:MO:null:mod=[	!	!LO:MO:null:mod=[
4F;\	.	4a;/)	.	4cc;\	.
!	!	!	!	!	!LO:MO:null:mod=.
4r	.	4r	[	4r	[
!	!	!	!	!LO:LB:g=original	!
=143	=143	=143	=143	=143	=143
!	!LO:MO:mod=!null:null	!	!	!	!
!	!LO:DY:t=rinf	!	!	!	!
[2BB-/	rfz	8r	.	[4ff\	.
!	!	!	!LO:MO:mod=!null:null	!	!
!	!	!	!LO:DY:t=rinf	!	!
.	.	(8f/L	rfz	.	.
!	!	!	!	!	!LO:MO:mod=!null:null
!	!	!	!	!	!LO:DY:t=rinf
.	.	8d/	.	16ff\LL]	rfz
.	.	.	.	(16bb-\	.
.	.	8f/J)	.	16ff\)	.
.	.	.	.	16dd\JJ	.
=144	=144	=144	=144	=144	=144
2BB-/]	.	(8d/L	.	4.b-\	.
.	.	8f/	.	.	.
.	.	8d/	.	.	.
.	.	8f/J)	.	(16dd\LL	.
!	!	!	!	!LO:SIC:s=16ff\JJ):v	!
.	.	.	.	16ff\JJ	.
=145	=145	=145	=145	=145	=145
!	!	!	!	!LO:SIC:s=8qqff/:v	!
.	.	.	.	8qqff/)	.
8F\	.	8c'/L	.	4.f/	.
8r	.	(8f/	.	.	.
8FF/	.	8d/	.	.	.
.	.	.	.	(16qqa/LL	.
.	.	.	.	16qqg/	.
.	.	.	.	16qqf/JJ	.
8r	.	8f/J)	.	16g/LL	.
.	.	.	.	16a/JJ	.
=146	=146	=146	=146	=146	=146
8BB-/	.	8d'/L	.	4b-/)	.
8r	.	(8f/	.	.	.
4r	.	8b-/	.	4r	.
.	.	8a-X/J)	.	.	.
=147	=147	=147	=147	=147	=147
!	!	!	!	!	!LO:MO:mod=!null:null
!	!	!	!	!	!LO:DY:t=rinf
2EE-/	.	8g'/L	.	(4.bb-\	rfz
.	.	(8G/	.	.	.
.	.	8B-/	.	.	.
.	.	8e-/J)	.	8gg\)	.
=148	=148	=148	=148	=148	=148
2E-\	.	8r	.	4.ee-\	>
.	.	(8g/L	.	.	.
.	.	8e-/	.	.	.
!	!	!	!	!LO:TUP:a:problem:klamra łukowa	!
.	.	8g/J)	.	24gg\LL	.
.	.	.	.	24ee-\	.
.	.	.	.	24cc\JJ	.
=149	=149	=149	=149	=149	=149
.	.	.	.	8qqcc/	.
!	!LO:DY:t= :mod=%s	!	!	!	!
!	!LO:MO:mod=!LO&colon;DY&colon;ed=brack	!	!	!	!
!	!null	!	!	!	!
8F\L	p	16r	.	8b-\	.
.	.	16d/LL	p	.	.
8F\	.	16d/	.	4b-\	.
.	.	16d/JJ	.	.	.
8FF/	.	16r	.	.	.
.	.	16d/LL	.	.	.
.	.	.	.	8qqdd/	.
8FF/J	.	16d/	.	8cc\	]]
.	.	16d/JJ	.	.	.
=150	=150	=150	=150	=150	=150
8BB-/	.	8d/	.	8b-/L	p
!	!	!	!	!LO:TUP:b:problem:klamra łukowa 	!
8r	.	8r	.	24f/L	.
.	.	.	.	24g/	.
.	.	.	.	24f/JJ	.
4r	.	4r	.	(24e-/LL	.
.	.	.	.	24f/	.
.	.	.	.	24e-/)	.
.	.	.	.	(24c/	.
.	.	.	.	24d/	.
.	.	.	.	24c/JJ)	.
!	!	!LO:LB:g=original	!	!LO:LB:g=original	!
=151	=151	=151	=151	=151	=151
!LO:MO:mod=!null:null	!	!LO:MO:mod=!null:null	!	!	!
!LO:TX:a:t=3	!	!LO:TX:a:t=I	!	!LO:TUP:b:problem:klamra łukowa	!
!LO:MO:mod=!null:null	!	!	!	!	!
!LO:N:vis=0	!	!	!	!	!
1r	.	2r	.	24d/LL	.
.	.	.	.	24e-/	.
.	.	.	.	24d/	.
.	.	.	.	24b-/	.
.	.	.	.	24cc/	.
.	.	.	.	24b-/JJ	.
!	!	!	!	!LO:TUP:b:problem:klamra łukowa	!
.	.	.	.	24a/LL	.
.	.	.	.	24b-/	.
.	.	.	.	24a/	.
.	.	.	.	24cc/	.
.	.	.	.	24dd/	.
.	.	.	.	24cc/JJ	.
=152	=152	=152	=152	=152	=152
!	!	!	!	!LO:TUP:a:problem:klamra łukowa	!
.	.	8r	.	24b-\LL	.
.	.	.	.	24cc\	.
.	.	.	.	24b-\	.
*	*	*tuplet	*	*	*
!	!	!	!	!	!LO:MO:mod=!null:null
!	!	!LO:TUP:b:problem:klamra łukowa	!	!	!LO:HP:a:t=cres
.	.	24f/LL	p	24dd\	<
.	.	24g/	.	24ee-\	.
.	.	24f/JJ	.	24dd\JJ	.
!	!	!LO:MO:mod=!null:null	!	!	!
*	*	*Xtuplet	*	*	*
!	!	!LO:TUP:b:problem:klamra łukowa	!	!LO:TUP:a:problem:klamra łukowa	!
.	.	24e-/LL	.	24cc\LL	.
.	.	24f/	.	24dd\	.
.	.	24e-/	.	24cc\	.
.	.	24c/	.	24a\	.
.	.	24d/	.	24b-\	.
.	.	24c/JJ	.	24a\JJ	.
=153	=153	=153	=153	=153	=153
!	!	!LO:TUP:b:problem:klamra łukowa	!	!LO:TUP:a:problem:klamra łukowa	!
2r	.	24d/LL	.	24b-\LL	.
.	.	24e-/	.	24cc\	.
.	.	24d/	.	24b-\	.
.	.	24b-/	.	24dd\	.
.	.	24cc/	.	24ee-\	.
.	.	24b-/JJ	.	24dd\JJ	.
!	!	!LO:TUP:b:problem:klamra łukowa	!	!LO:TUP:a:problem:klamra łukowa	!
.	.	24a\LL	.	24cc\LL	.
.	.	24b-\	.	24dd\	.
.	.	24a\	.	24cc\	.
.	.	24cc\	.	24ee-\	.
.	.	24dd\	.	24ff\	.
.	.	24cc\JJ	.	24ee-\JJ	.
=154	=154	=154	=154	=154	=154
!	!	!	!	!LO:TUP:a:problem:klamra łukowa	!LO:DY:b:t=F
8r	.	16b-/KL	.	24dd\LL	f
.	.	.	.	24ee-\	.
!	!	!	!LO:MO:mod=!null:null	!	!
!	!	!	!LO:HP:b:t=cres	!	!
.	.	8f/	<	.	.
.	.	.	.	24dd\	.
8B-\L	.	.	.	24ff\	.
.	.	.	.	24gg\	.
.	.	16f/Jk	.	.	.
.	.	.	.	24ff\JJ	.
8c\	.	16f/KL	.	(24ee-\LL	.
.	.	.	.	24cc\	.
.	.	8f/	.	.	.
.	.	.	.	24ee-\)	.
8F\J	.	.	.	(24a\	.
.	.	.	.	24b-\	.
.	.	16f/Jk	.	.	.
.	.	.	.	24a\JJ)	.
!	!	!	!	!LO:LB:g=original	!
=155	=155	=155	=155	=155	=155
!	!	!	!LO:DY:b:t=F	!LO:TUP:a:problem:klamra łukowa	!
8r	.	16f/KL	f	24dd\LL	.
.	.	.	.	24ee-\	.
.	.	8f/	.	.	.
.	.	.	.	24dd\	.
!	!LO:DY:t= :mod=%s	!	!	!	!
!	!LO:MO:mod=!LO&colon;DY&colon;ed=brack	!	!	!	!
!	!null	!	!	!	!
8BB-/L	f	.	.	24ff\	.
.	.	.	.	24gg\	.
.	.	16f/Jk	.	.	.
.	.	.	.	24ff\JJ	.
8C/	.	16f/KL	.	(24ee-\LL	.
.	.	.	.	24cc\	.
.	.	8f/	.	.	.
.	.	.	.	24ee-\)	.
8FF/J	.	.	.	(24a\	.
.	.	.	.	24b-\	.
.	.	16f/Jk	.	.	.
.	.	.	.	24a\JJ)	.
=156	=156	=156	=156	=156	=156
!	!	!	!	!LO:TUP:a:problem:klamra łukowa	!
8BB-/	.	8f/	.	24ddLL 24b-\	p
.	.	.	.	24ee- 24cc\	.
.	.	.	.	24dd 24b-\	.
8r	.	8r	.	24cc 24a\	.
.	.	.	.	24dd 24b-\	.
.	.	.	.	24ccJJ 24a\	.
!	!	!	!	!	!LO:MO:mod=!null:null
!	!	!	!	!LO:TUP:b:problem:klamra łukowa	!LO:DY:t=rinf
4r	.	4r	.	24b-LL 24g/	rfz
.	.	.	.	24cc 24a/	.
.	.	.	.	24b- 24g/	.
.	.	.	.	24a 24f#X/	.
.	.	.	.	24b- 24g/	.
.	.	.	.	24aJJ 24f#/	.
!	!	!LO:LB:g=original	!	!	!
=157	=157	=157	=157	=157	=157
!LO:MO:mod=!null:null	!	!LO:MO:mod=!null:null	!	!	!
!LO:TX:a:t=2	!	!LO:TX:a:t=2	!	!LO:TUP:a:problem:klamra łukowa	!
!LO:MO:mod=!null:null	!	!LO:MO:mod=!null:null	!	!	!
!LO:N:vis=0	!	!LO:N:vis=0	!	!	!
1r	.	1r	.	24b-LL 24g/	p
.	.	.	.	24cc 24a/	.
.	.	.	.	24b- 24g/	.
.	.	.	.	24a 24fn/	.
.	.	.	.	24b- 24g/	.
.	.	.	.	24aJJ 24f/	.
!	!	!	!	!	!LO:MO:mod=!null:null
!	!	!	!	!LO:TUP:b:problem:klamra łukowa	!LO:DY:t=rinf
.	.	.	.	24gLL 24e-/	rfz
.	.	.	.	24a 24f/	.
.	.	.	.	24g 24e-/	.
.	.	.	.	24f 24d/	.
.	.	.	.	24g 24e-/	.
.	.	.	.	24fJJ 24d/	.
!	!	!	!	!LO:LB:g=original	!
=158	=158	=158	=158	=158	=158
!	!	!	!	!LO:TUP:a:problem:klamra łukowa	!
.	.	.	.	24gLL 24e-/	.
.	.	.	.	24a 24f/	.
.	.	.	.	24g 24e-/	.
.	.	.	.	24f 24d/	.
.	.	.	.	24g 24e-/	.
.	.	.	.	24fJJ 24d/	.
!	!	!	!	!	!LO:MO:mod=!null:null
!	!	!	!	!LO:TUP:b:problem:klamra łukowa	!LO:DY:t=rinf
.	.	.	.	24e-LL 24c/	rfz
.	.	.	.	24f 24d/	.
.	.	.	.	24e- 24c/	.
.	.	.	.	24d 24B-/	.
.	.	.	.	24e- 24c/	.
.	.	.	.	24dJJ 24B-/	.
!LO:LB:g=original	!	!	!	!	!
=159	=159	=159	=159	=159	=159
!	!	!	!	!	!LO:DY:b:t=F
!	!	!	!	!	!LO:MO:mod=!null:null
.	.	.	.	8qqf 8qqd/	f
!	!	!	!LO:MO:mod=!null:null	!	!LO:DY:t= :mod=%s
!	!	!	!LO:HP:a	!	!LO:MO:mod=!LO&colon;DY&colon;ed=
!	!	!	!	!	!null
8FF/L	<	8A/L	<	(16e-LL 16c/	f
.	.	.	.	16d 16Bn/)	.
8F\	.	8A/	.	(16e- 16c/	.
.	.	.	.	16dJJ 16B/)	.
(8F\	.	8A/	.	(16e-LL 16c/	.
.	.	.	.	16d 16B/)	.
8G-X\J)	[[	8A/J	[[	(16e- 16c/	.
.	.	.	.	16dJJ 16B/)	.
=160	=160	=160	=160	=160	=160
2F;\	.	2A;/	.	2e- 2cT;/	.
=161	=161	=161	=161	=161	=161
!	!LO:DY:t= :mod=%s	!	!	!	!
!	!LO:MO:mod=!LO&colon;DY&colon;ed=brack	!	!	!	!
!	!null	!	!	!	!
8BB-/	p	8r	.	(4.f/	p
!	!	!	!LO:DY:t= :mod=%s	!	!
!	!	!	!LO:MO:mod=!LO&colon;DY&colon;ed=brack	!	!
!	!	!	!null	!	!
8r	.	(24B-/LL	p	.	.
.	.	24c/	.	.	.
.	.	24B-/JJ	.	.	.
8r	.	8d/)	.	.	.
8BB-/	.	8r	.	8d/)	.
=162	=162	=162	=162	=162	=162
.	.	.	.	8qqd/	.
8E-\	.	8r	.	4.b-/	.
8r	.	(24G/LL	.	.	.
.	.	24A/	.	.	.
.	.	24G/JJ	.	.	.
8r	.	8B-/)	.	.	.
!	!	!	!	!LO:TUP:b:problem:klamra łukowa	!
8E-\	.	8r	.	24a/LL	.
.	.	.	.	24b-/	.
.	.	.	.	24g/JJ	.
=163	=163	=163	=163	=163	=163
4D\	.	(24B-/LL	.	4.f/	.
.	.	24c/	.	.	.
.	.	24B-/	.	.	.
.	.	24A/	.	.	.
.	.	24B-/	.	.	.
.	.	24A/JJ	.	.	.
4E-\	.	16G/)	.	.	.
.	.	16r	.	.	.
.	.	8r	.	24g/LL	.
.	.	.	.	24e-/	.
.	.	.	.	24c/JJ	.
=164	=164	=164	=164	=164	=164
.	.	.	.	8qqc/	.
8F\L	p	16r	.	8B-/	.
.	.	16d/LL	p	.	.
8F\	.	16d/	.	4B-/	.
.	.	16d/JJ	.	.	.
8FF/	.	16r	.	.	.
.	.	16d/LL	.	.	.
.	.	.	.	8qqd/	.
8FF/J	.	16d/	.	8c/	.
.	.	16d/JJ	.	.	.
!	!	!	!	!LO:LB:g=original	!
=165	=165	=165	=165	=165	=165
8BB-/	.	8d/	.	8B-/L	.
!	!	!	!	!LO:TUP:b:problem:klamra łukowa  	!
8r	.	8r	.	24f/L	.
.	.	.	.	24g/	.
.	.	.	.	24f/JJ	.
4r	.	4r	.	(24b-\LL	.
.	.	.	.	24cc\	.
.	.	.	.	24b-\)	.
.	.	.	.	(24dd\	.
.	.	.	.	24ee-\	.
.	.	.	.	24dd\JJ)	.
!	!	!LO:LB:g=original	!	!	!
=166	=166	=166	=166	=166	=166
8r	.	8r	.	(4.ff\	>
!	!LO:DY:t= :mod=%s	!	!	!	!
!	!LO:MO:mod=!LO&colon;DY&colon;ed=brack	!	!	!	!
!	!null	!	!	!	!
(8BB-/L	p	(24d/LL	p	.	.
.	.	24e-/	.	.	.
.	.	24d/JJ	.	.	.
8C/)	.	8e-/L)	.	.	.
8FF'/J	.	8c'/J	.	16ee-\LL	.
.	.	.	.	16cc\JJ)	]]
=167	=167	=167	=167	=167	=167
!	!	!	!	!LO:SIC:s=8b-\L:v	!
8BB-/	.	8d/	.	8g\L	.
!	!	!	!	!LO:TUP:b:problem:klamra łukowa	!
8r	.	8r	.	24ff\L	.
.	.	.	.	24gg\	.
.	.	.	.	24ff\JJ	.
4r	.	4r	.	(24bb-\LL	.
.	.	.	.	24ccc\	.
.	.	.	.	24bb-\)	.
.	.	.	.	(24ddd\	.
.	.	.	.	24eee-\	.
.	.	.	.	24ddd\JJ)	.
=168	=168	=168	=168	=168	=168
8r	.	8r	.	(<4.fff\	>
(8B-\L	.	(24dd\LL	.	.	.
.	.	24ee-\	.	.	.
.	.	24dd\JJ	.	.	.
8c\)	.	8ee-\L)	.	.	.
8F'\J	.	8cc'\J	.	16eee-\LL	.
.	.	.	.	16ccc\JJ)	]]
=169	=169	=169	=169	=169	=169
8B-\L	.	8b-/L	.	(24bb-\LL	.
.	.	.	.	24ccc\	.
.	.	.	.	24bb-\)	.
!	!LO:MO:mod=!null:null	!	!LO:MO:mod=!null:null	!	!LO:MO:mod=!null:null
!	!LO:DY:t=rinf	!	!LO:DY:t=rinf	!	!LO:HP:b:t=cres
8d\	rfz	8dd/	rfz	(24ddd\	<
.	.	.	.	24eee-\	.
.	.	.	.	24ddd\JJ)	.
8B-\	.	8b-/	.	(24bb-\LL	.
.	.	.	.	24ccc\	.
.	.	.	.	24bb-\)	.
8F\J	.	8f/J	.	(24ff\	.
.	.	.	.	24gg\	.
.	.	.	.	24ff\JJ)	.
=170	=170	=170	=170	=170	=170
!	!	!	!	!LO:MO:mod=!null:null	!
!	!	!	!	!LO:TX:b:t=cres-cen-do:dur=2q:ext=s:problem:text with extention lines	!
!	!	!	!	!	!LO:MO:mod=!null:null
8B-\L	.	8b-/L	.	(24bb-\LL	<
.	.	.	.	24ccc\	.
.	.	.	.	24bb-\)	.
8d\	.	8dd/	.	(24ddd\	.
.	.	.	.	24eee-\	.
.	.	.	.	24ddd\JJ)	.
!	!	!	!	!LO:SIC:s=(24bb-\LL:v	!
8B-\	.	8b-/	.	24bb-\LL	.
.	.	.	.	24ccc\	.
!	!	!	!	!LO:SIC:s=24bb-\):v	!
.	.	.	.	24bb-\	.
!	!	!	!	!LO:SIC:s=(24ff\:v	!
8F\J	.	8f/J	.	24ff\	.
.	.	.	.	24gg\	.
!	!	!	!	!LO:SIC:s=24ff\JJ):v	!
!	!	!	!	!	!LO:MO:mod=!null:null
.	.	.	.	24ff\JJ	[
!	!	!	!	!LO:LB:g=original	!
=171	=171	=171	=171	=171	=171
!	!LO:DY:b:t=F	!	!LO:DY:b:t=F	!	!
8B-\	f	8b-/L	f	24bb-\LL	.
.	.	.	.	24ccc\	.
.	.	.	.	24bb-\	.
8r	.	8f/	.	24ddd\	.
.	.	.	.	24eee-\	.
.	.	.	.	24ddd\JJ	.
8BB-/L	.	8d/	.	24bb-\LL	.
.	.	.	.	24ccc\	.
.	.	.	.	24bb-\	.
8B-\J	.	8f/J	.	24ddd\	.
.	.	.	.	24eee-\	.
.	.	.	.	24ddd\JJ	.
=172	=172	=172	=172	=172	=172
16BB-\LL	.	16d/LL	.	8bb-\	.
16B-\	.	16d/	.	.	.
!	!	!	!	!LO:MO:mod=!null:null	!
!	!	!	!	!LO:N:vis=16	!
16F\	.	16f/	.	8r	.
16D\JJ	.	16b-/JJ	.	.	.
!	!	!	!	!	!LO:DY:b:t=F
8BB-/	.	8dd\	.	(16bb-\LL	f
.	.	.	.	32ccc\L	.
.	.	.	.	32ddd\	.
8r	.	8r	.	32eee-\	.
.	.	.	.	32fff\	.
.	.	.	.	32ggg\	.
.	.	.	.	32aaa\JJJ	.
=173	=173	=173	=173	=173	=173
8BB-/	.	8dd 8f/	.	8bbb-\)	.
8r	.	8r	.	8r	.
8B-\L	.	8ddL 8f/	.	8b-L 8d/	.
8BB-/J	.	8ddJ 8f/	.	8bb-J 8b- 8d/	.
=174	=174	=174	=174	=174	=174
4BB-/	.	4dd 4f/	.	4d 4B-/	.
4r	.	4r	.	4r	.
==	==	==	==	==	==
*-	*-	*-	*-	*-	*-
!!!system-decoration: [(s1,s2,s3)]
!!!RDF**kern: > = above
!!!RDF**kern: < = below
!!!filter-modern: tie -s | humtr -p | sic -sq | shed -e "s/LO:DY:(a|b|rj)/LO:dy:$1/L" | shed -e "s/TX(.*):t=P:/tx$1:t=P:/LG" | modori -m | autostem -r | shed -e "s/yy//" | shed -k -e "s/\(y([^y])/($1/" | shed -e "s/-//B" | shed -e "s/^(\d+[\/\\]right)/$1yy/I; s/^(\d+[\/\\]left)/$1yy/I" | shed -e "s/^(X?)rep$/$1REP/I" | shed -k -e "s/[<>]//g" | shed -e "s/^custos:/Xcustos:/I" | shed -k -e "s/:TUP:/:tup:/L" | shed -k -e "s/r[a-gA-G]+/r/D" | rid -lid
!!!ENC: Marta Opryszak
!!!END: 2022-05-23
!!!ENC: Natalia Wrzos
!!!END: 2022-07-02
!!!EED-modern: Antoni Szymański
!!!END-modern: 2022-08-14
